!!!COM:	L. van Beethoven
!!!OTL:	Op. 59 No. 3 Movement 1 - String Quartet No. 9
**kern	**dynam
*I"2nd Violin	*
*clefG2	*
*k[]	*
*C:	*
*M3/4	*
=1	=1
!LO:TX:a:B:t=Introduzione	!
!LO:TX:a:B:t=Andante con moto	!
[2.e-X	f
=2	=2
4e-]	>
4r	]
4r	.
=3	=3
[2.e-X	pp
=4	=4
4e-]	.
4r	.
4r	.
=5	=5
!LO:TX:b:i:t=sempre	!
2.en	.
=6	=6
[2.f#X	pp
=7	=7
(4f#]	.
4b	.
4cc)	.
=8	=8
(2.cc	f
=9	=9
4b)	>
4r	p
4r	.
=10	=10
2.b	.
=11	=11
!LO:TX:b:i:t=sempre	!
2b-X	pp
[4B-X	.
=12	=12
2.B-_	.
=13	=13
(2B-]	.
4Bn)	.
=14	=14
!!linebreak:original
[2.d-X	.
=15	=15
2.d-]	.
=16	=16
[2.c	.
=17	=17
2c]	.
(4g	.
=18	=18
*^	*
2f#X	2ryy	.
8.gTL	384%19gyy	.
.	32a-LLLyy	.
.	32gyy	.
.	32a-yy	.
.	32gJJJyy	.
.	96ryy	.
.	16ryy	.
32f#XLL	.	.
32gJJJ)	.	.
*v	*v	*
=19	=19
[2.a-X	.
=20	=20
2.a-_	.
=21	=21
2.a-]	.
=22	=22
[2.a-X	.
=23	=23
2.a-_	.
=24	=24
4a-]	.
4r	.
4r	.
=25	=25
2.r	.
=26	=26
[2.d	.
=27	=27
2.d_	.
=28	=28
2.d_	.
=29	=29
2d]	.
=30||	=30||
!!linebreak:original
*M4/4	*
*met(c)	*
!LO:TX:a:B:t=Allegro vivace	!
8c'	p
8r	.
=31!|:	=31!|:
2.B 2.d	.
4r	.
=32	=32
1r	.
=33	=33
1r	.
=34	=34
1r	.
=35	=35
2r	.
4r	.
8d'	f
8r	.
=36	=36
2.c#X 2.e	.
4r	.
=37	=37
1r	.
=38	=38
1r	.
=39	=39
1r	.
=40	=40
1r	.
=41	=41
4r	p
(4c#X	.
8d)	.
8r	.
8f'	pp
8r	.
=42	=42
!LO:TX:b:i:t=cresc.	!
1e	.
=43	=43
1B 1d	f
=44	=44
!!linebreak:original
[2c [2e	.
8c] 8e]	.
(16ccLL	.
16ddJJ)	.
8ee'L	sf
8cc'J	.
=45	=45
8a'L	.
(16aL	.
16bJJ)	.
8cc'L	.
8a'J	sf
8f'L	.
(16dL	.
16eJJ)	.
8f'L	.
8d'J	sf
=46	=46
(8eL	.
8gJ)	.
[4cc	.
8ccL]	.
(16ccL	.
16ddJJ)	.
8ee'L	.
8cc'J	.
=47	=47
8aL	.
(16aL	.
16bJJ)	.
8cc'L	.
8a'J	.
8f'L	.
(16dL	.
16eJJ)	.
8f'L	.
8d'J	.
=48	=48
(8eL	.
8gJ)	.
4cc	.
8r	.
(16eLL	.
16fJJ)	.
8g'L	.
8e'J	.
=49	=49
(8fL	.
8aJ)	.
4dd	.
8r	.
(16eLL	.
16fJJ)	.
8g'L	.
8e'J	.
=50	=50
(8fL	.
8aJ)	.
!LO:TX:a:i:t=ten.	!
4dd	.
(8ddL	.
8ffJ)	.
!LO:TX:a:i:t=ten.	!
4bb	.
=51	=51
!!linebreak:original
(8eeL	.
!LO:TX:a:i:t=ten.	!
8cccJ)	.
4eee	.
(8aaL	.
8cccJ)	.
4fff	.
=52	=52
!LO:TX:a:i:t=ten.	!
[2eee	.
8eeeL]	.
(16dddL	.
16cccJJ	.
16bbLL	.
16aa	.
16gg	.
16ffJJ)	.
=53	=53
*^	*
(4ee	2ryy	.
8ddL	.	.
8ccJ)	.	.
(4ccT	192%11ccyy	.
.	32ddLLLyy	.
.	32ccyy	.
.	32ddyy	.
.	32ccyy	.
.	32ddyy	.
.	32ccJJJyy	.
.	192ryy	.
16qqb/LL	.	.
16qqcc/JJ	.	.
8ddL	4ryy	.
8bJ)	.	.
*v	*v	*
=54	=54
(8ccL	.
8ee)	.
8gg'	.
8gg'J	.
(8eeL	.
8gg)	.
8ccc'	.
8ccc'J	.
=55	=55
(8ffL	.
8aa)	.
8aa'	.
8aa'J	.
(8aaL	.
8ccc)	.
8fff'	.
8fff'J	.
=56	=56
[2eee	.
8eeeL]	.
(16dddL	.
16cccJJ	.
16bbLL	.
16aa	.
16gg	.
16ffJJ)	.
=57	=57
8ee	.
8r	.
4r	.
2r	.
=58	=58
4r	.
8e	p
8r	.
[2f	.
=59	=59
!!linebreak:original
2f_	.
4.f]	.
8d	.
=60	=60
(16cLL	.
16e	.
16d	.
16fJJ	.
16eLL	.
16g	.
16f	.
16aJJ	.
2g)	.
=61	=61
(16fLL	.
16a	.
16g	.
16eJJ	.
16dLL	.
16f	.
16e	.
16cJJ	.
16BLL	.
16d	.
16c	.
16AJJ	.
8GL	.
16AL	.
16BJJ)	.
=62	=62
4c	.
4r	.
8r	.
8ccL	.
8cc	.
8ccJ	.
=63	=63
4b	.
4r	.
8r	.
8f'L	.
(8f	.
8dJ)	.
=64	=64
4c	.
4r	.
2r	.
=65	=65
1r	.
=66	=66
2r	.
4r	.
8b-X'	.
8r	.
=67	=67
(2a	.
2bn)	>
=68	=68
2.e 2.cc	]
8b-X'	.
8r	.
=69	=69
!!linebreak:original
(2a	.
2bn)	<
=70	=70
2.cc	[
(8eL	.
8aJ)	.
=71	=71
(<4g#X	.
2b	.
[4e)	.
=72	=72
(8eL]	.
16f#XL	.
16g#XJJ)	.
8a'L	.
8a'J	.
(4a	.
4gn)	.
=73	=73
8f#XL	.
(16f#L	.
16g#XJJ)	.
8a'L	.
8a'J	.
(4a	.
4gn)	.
=74	=74
!LO:TX:b:i:t=cresc.	!
(8f#XL	.
16f#L	.
16gJJ	.
16aLL	.
16g	.
16f#	.
16gJJ)	.
[2a	.
=75	=75
(8aL]	.
16f#XL	.
16gJJ)	.
[4a	.
(8aL]	.
16f#L	.
16gJJ)	.
[4a	.
=76	=76
!!linebreak:original
8aL]	f
(16ff#XL	.
16ggJJ)	.
8aa'L	.
(16aaL	.
16bbJJ)	.
8ccc'L	.
(16ff#L	.
16ggJJ)	.
8aa'L	.
(16ddL	.
16eeJJ)	.
=77	=77
16ff#XLL	.
16gg	.
16aa	.
16bbJJ	.
16aaLL	.
16gg	.
16ff#	.
16eeJJ	.
16ddLL	.
16ee	.
16dd	.
16ccJJ	.
16bLL	.
16cc	.
16b	.
16aJJ	.
=78	=78
4B 4g	f
4r	.
2r	.
=79	=79
8c 8e	p
8r	.
4r	.
2r	.
=80	=80
2r	.
4r	.
(8aL	.
16bL	.
16ccJJ)	.
=81	=81
(16ddLL	.
16ee	.
16ff#X	.
16ggJJ	.
16ff#LL	.
16ee	.
16dd	.
16ccJJ)	.
(16bLL	.
16cc	.
16dd	.
16eeJJ	.
16ddLL	.
16cc	.
16b	.
16aJJ)	.
=82	=82
8g	f
8r	.
4r	.
2r	.
=83	=83
1r	.
=84	=84
!!linebreak:original
4r	.
(16f#XLL	p
16g	.
16a	.
16f#JJ	.
16g#XLL	.
16a	.
16b	.
16g#JJ)	.
8ee'L	.
8ee'J	.
=85	=85
(2ee	.
4cc	.
4a)	.
=86	=86
(<4a	pp
4f#X	.
4gn	.
4b)	.
=87	=87
(4a	.
4f#X	.
4B)	.
4B	.
=88	=88
!LO:TX:b:i:t=cresc.	!
[1B [1d	.
=89	=89
2B] 2d]	.
2fn	.
=90	=90
16eLL	f
16e	.
16f	.
16gJJ	.
16aLL	.
16b	.
16cc	.
16ddJJ	.
16eeLL	f
(16e	.
16d	.
16eJJ	.
16fLL	.
16e	.
16d	.
16eJJ)	.
=91	=91
16r	f
(16dLL	.
16c	.
16dJJ	.
16eLL	.
16d	.
16c	.
16dJJ)	.
16r	.
(16f#XLL	f
16a	.
16f#JJ	.
16aLL	.
16f#	.
16a	.
16f#JJ)	.
=92	=92
!!linebreak:original
8g	p
8r	.
4r	.
4r	.
8aa'	.
8r	.
=93	=93
(4gg	.
4gg#X	.
4aa	.
8bbL	.
8cccJ)	.
=94	=94
(16bbLL	.
16dd	.
16ee	.
16ff#XJJ	.
16ggnLL	.
16ff#	.
16gg	.
16aaJJ)	.
(4bb	.
4b)	.
=95	=95
2.cc	.
(4A 4f#X	.
=96	=96
2.B) 2.g	.
(4G	.
=97	=97
2.A)	.
4f#X	.
=98	=98
!LO:TX:b:i:t=cresc.	!
[2g	.
8gL]	.
8a'	.
8b'	.
8cc'J	.
=99	=99
*^	*
1ccT	192%25ccyy	.
.	32ddyy	.
.	32ccyy	.
.	32ddyy	.
.	32ccyy	.
.	32ddyy	.
.	32ccyy	.
.	32ddyy	.
.	32ccyy	.
.	32ddyy	.
.	32ccyy	.
.	32ddyy	.
.	32ccyy	.
.	32ddyy	.
.	32ccyy	.
.	32ddyy	.
.	32ccyy	.
.	32ddyy	.
.	32ccyy	.
.	32ddyy	.
.	32ccyy	.
.	32ddyy	.
.	32ccyy	.
.	32ddyy	.
.	32ccyy	.
.	32ddyy	.
.	32ccyy	.
.	32ddyy	.
.	32ccyy	.
*v	*v	*
=100	=100
4b	f
4r	.
2r	.
=101	=101
1r	.
=102	=102
2r	.
8d'L	.
8d'	.
8c'	sf
8B'J	.
=103	=103
!!linebreak:original
8e'L	.
8e'	.
8d'	sf
8c'J	.
8g'L	.
8g'	.
8cc'	.
8b'J	sf
=104	=104
8cc'L	.
8b'	.
8gg'	.
8gg'J	.
8a 8gg	.
8ra	.
8a 8ff#X	.
8r	.
=105	=105
4b 4gg	.
8r	.
8f#X'	.
4g'	.
8r	.
8e	.
=106	=106
4d	.
8r	.
8c	.
4B	.
8r	.
8c	.
=107	=107
8B	.
8r	.
8G	.
8r	.
[2A-X	.
=108	=108
4A-]	.
8G	.
8r	.
[2A-X	.
=109	=109
4A-]	.
8A-X'	.
8r	.
8An'	.
8r	.
8A#X'	.
8r	.
=110	=110
8B'	.
8r	.
8A#X'	.
8r	.
8B'	.
8r	.
8c'	.
8r	.
=111:|!	=111:|!
!!linebreak:original
8B	.
8r	.
8G'	p
8r	.
[2A-X	.
=112	=112
4A-]	.
8G'	.
8r	.
[2A-X	.
=113	=113
4A-]	.
8A-X'	.
8r	.
[2An	.
=114	=114
4A]	.
8A	.
8r	.
!LO:TX:b:i:t=cresc.	!
[2B-X	.
=115	=115
!	!LO:DY:a
8B-]	p
8r	.
8b-X	.
8r	.
8a-X	.
8r	.
8g	.
8r	.
=116	=116
2.b-X	p
4r	.
=117	=117
1r	.
=118	=118
1r	.
=119	=119
1r	.
=120	=120
1r	.
=121	=121
1r	.
=122	=122
!!linebreak:original
4r	.
(4f	.
8B-X)	.
8r	.
8e-X'	.
8r	.
=123	=123
2.f	.
8e-X'	.
8r	.
=124	=124
2.f	.
8d'L	.
16r	.
16e-X'Jk	.
=125	=125
(8gL	.
8fJ)	.
8d'L	.
16r	.
16e-X'Jk	.
(8e-L	.
8dJ)	.
4r	.
=126	=126
2r	.
4r	.
8dd'L	.
16r	.
16ee-X'Jk	.
=127	=127
(8ggL	.
8ffJ)	.
8dd'L	.
16r	.
16ee-X'Jk	.
(8ee-L	.
8ddJ)	.
4r	.
=128	=128
4r	.
8b-X'L	.
16r	.
16cc'Jk	.
(8ccL	.
8b-J)	.
8g'L	.
16r	.
16a-X'Jk	.
=129	=129
(8a-XL	.
8gJ)	.
4r	.
4r	.
8g'L	.
16r	.
16a-'Jk	.
=130	=130
!!linebreak:original
(8a-XL	.
[8gJ)	.
2.g_	pp
=131	=131
2.g]	.
(4b-X	.
=132	=132
2.bn)	.
8b'	.
8r	.
=133	=133
(>2a	.
2g	.
=134	=134
2f#X	.
2e	.
=135	=135
2c	.
2A#X)	.
=136	=136
!LO:TX:b:i:t=cresc.	!
[1B	.
=137	=137
2B]	.
2c	.
=138	=138
*^	*
16fLL	2ryy	f
16c	.	.
16c	.	.
16cJJ	.	.
16cLL	.	.
16c	.	.
16c	.	.
16cJJ	.	.
2c	16cLLyy	.
.	16cyy	.
.	16cyy	.
.	16cyy	.
.	16cyy	.
.	16cyy	.
.	16cyy	.
.	16cJJyy	.
=139	=139	=139
2B-X 2e	16B-XLLyy 16e	.
.	16B-Xyy 16e	.
.	16B-Xyy 16e	.
.	16B-Xyy 16e	.
.	16B-Xyy 16e	.
.	16B-Xyy 16e	.
.	16B-Xyy 16e	.
.	16B-Xyy 16e	.
2B- 2e	16B-yy 16e	.
.	16B-yy 16e	.
.	16B-yy 16e	.
.	16B-yy 16e	.
.	16B-yy 16e	.
.	16B-yy 16e	.
.	16B-yy 16e	.
.	16B-JJyy 16e	.
*v	*v	*
=140	=140
!!linebreak:original
4A 4f	p
4r	.
8r	.
8fL	.
8f	.
8fJ	.
=141	=141
4e	.
4r	.
8r	.
8G'L	.
(8G	.
8B-XJ)	.
=142	=142
4A	.
4r	.
(16dLL	.
16f#X	.
16e	.
16gJJ	.
16f#LL	.
16a	.
16f#	.
16dJJ)	.
=143	=143
(<16gLL	.
16b-X	.
16a	.
16ccJJ	.
16b-LL	.
16dd	.
16cc	.
16aJJ	.
16gLL	.
16b-	.
16a	.
16fnJJ	.
8eL	.
16fL	.
16gJJ)	.
=144	=144
8a	.
8r	.
4r	.
2r	.
=145	=145
2r	.
4r	.
8e-X'	p
8r	.
=146	=146
(2d	.
2en)	.
=147	=147
!!linebreak:original
(2.f	.
4e-X)	.
=148	=148
(2d	.
2en)	.
=149	=149
8f	.
8r	.
4r	.
2r	.
=150	=150
!LO:TX:b:i:t=cresc.	!
16r	.
16eeLL	.
16cc#X	.
16aJJ	.
16eeLL	.
16cc#	.
16a	.
16eJJ	.
16aLL	.
16e	.
16c#X	.
16eJJ	.
16ALL	.
16c#	.
16e	.
16gJJ	.
=151	=151
4f	.
4r	.
2r	.
=152	=152
16r	.
16dLL	.
16g	.
16bJJ	.
16ddLL	.
16b	.
16g	.
16dJJ	.
16gLL	.
16d	.
16B	.
16dJJ	.
16GLL	.
16B	.
16d	.
16fJJ	.
=153	=153
!!linebreak:original
8e-X	f
8r	.
8ff#X'	.
8r	.
[2gg	.
=154	=154
4gg]	.
8ff#X'	.
8r	.
[2gg	.
=155	=155
4gg]	.
4r	.
4r	.
4cc'	ff
=156	=156
2.ccc	.
4a-X'	.
=157	=157
2.aa-X	.
4f'	.
=158	=158
2.ff	.
4dd-X'	.
=159	=159
!LO:TX:b:i:t=dim.	!
2.a-X	.
4f'	.
=160	=160
2.d-X	p
4A-X'	.
=161	=161
2.d-X	.
4f'	.
=162	=162
2.e-X	.
4d-X'	.
=163	=163
2.c	.
4g-X'	.
=164	=164
!!linebreak:original
2.f	.
4e-X'	.
=165	=165
2.d-X	.
4c'	.
=166	=166
2.B	.
4f'	.
=167	=167
2.e-X	.
4dn'	.
=168	=168
2.c	.
4c'	.
=169	=169
2.c	pp
4f#X'	.
=170	=170
2.g	.
4d'	.
=171	=171
2.d	.
4f#X'	.
=172	=172
4.g	.
8d	.
4.d	.
8f#X	.
=173	=173
!LO:TX:b:i:t=cresc.	!
4.g	.
8G	.
4.G	.
8g	.
=174	=174
4.g	.
8G	.
4.G	.
8g	.
=175	=175
!!linebreak:original
4.g	.
8G	.
4.G	.
8g	.
=176	=176
4.g	ff
8G	.
4.g	.
8G	.
=177	=177
4.g	.
8G	.
4.g	.
8G	.
=178	=178
4G	f
4r	.
2r	.
=179	=179
1r	.
=180	=180
4G 4f	p
4r	.
2r	.
=181	=181
2r	.
4r	pp
(4e	.
=182	=182
[1f)	.
=183	=183
1f_	.
=184	=184
4f]	.
4r	.
2r	.
=185	=185
1r	.
=186	=186
1r	.
=187	=187
!!linebreak:original
4r	.
8d	.
8r	.
8c	.
8r	.
(4f#X	.
=188	=188
[1g)	.
=189	=189
1g_	pp
=190	=190
4g]	.
4r	.
2r	.
=191	=191
1r	.
=192	=192
1r	.
=193	=193
4r	.
8e	.
8r	.
8d	.
8r	.
4r	.
=194	=194
!LO:TX:b:i:t=cresc.	!
2.G	.
(4e	.
=195	=195
2.f)	.
8G' 8e	.
8r	.
=196	=196
[2G [2e	f
8G] 8e]	.
(>16ccLL	.
16ddJJ)	.
8ee'L	.
8cc'J	.
=197	=197
!!linebreak:original
8aL	.
(16aL	.
16bJJ)	.
8cc'L	.
8a'J	.
8fL	.
(16dL	.
16eJJ)	.
8f'L	.
8d'J	.
=198	=198
(8eL	.
8gJ)	.
[4cc	.
(16ccLL]	.
16dd	.
16cc	.
16ddJJ)	.
8ee'L	.
8cc'J	sf
=199	=199
(16aLL	.
16b	.
16a	.
16bJJ)	.
8cc'L	sf
8a'J	.
(16dLL	.
16e	.
16d	.
16eJJ)	.
8f'L	sf
8d'J	.
=200	=200
(16eLL	.
16g	.
16e	.
16gJJ)	.
4cc	.
(16eLL	.
16f	.
16e	.
16fJJ)	.
8g'L	.
8e'J	.
=201	=201
(16fLL	.
16a	.
16f	.
16aJJ)	.
4dd	.
(16eLL	.
16f	.
16e	.
16fJJ)	.
8g'L	.
8e'J	.
=202	=202
!!linebreak:original
(16fLL	.
16a	.
16f	.
16aJJ)	.
8dd'L	.
8dd'J	.
(16ddLL	.
16ff	.
16dd	.
16ffJJ)	.
8bb'L	.
8ddd'J	.
=203	=203
(16ggLL	.
16ccc	.
16gg	.
16cccJJ)	.
8eee'L	.
8eee'J	.
(16aaLL	.
16ccc	.
16aa	.
16cccJJ)	.
8fff'L	.
8fff'J	.
=204	=204
[2eee	.
8eeeL]	.
(16dddL	.
16cccJJ	.
16bbLL	.
16aa	.
16gg	.
16ffJJ)	.
=205	=205
(4ee	.
8ddL	.
8ccJ)	.
(4ccT	.
8ddL	.
8bJ)	.
=206	=206
(12ccL	.
12ee)	.
12gg'J	.
12ggL	.
12gg	.
12ggJ	.
(12eeL	.
12gg)	.
12ccc'J	.
12cccL	.
12ccc	.
12cccJ	.
=207	=207
!!linebreak:original
(12ffL	.
12aa)	.
12ccc'J	.
12cccL	.
12ccc	.
12cccJ	.
(12aaL	.
12ccc)	.
12fffJ	.
12fffL	.
12fff	.
12fffJ	.
=208	=208
[2eee	.
8eeeL]	.
(16dddL	.
16cccJJ	.
16bbLL	.
16aa	.
16gg	.
16ffJJ)	.
=209	=209
8ee	.
8r	.
4r	.
2r	.
=210	=210
2r	.
4r	.
8b-X	p
8r	.
=211	=211
(<2a	.
2bn)	.
=212	=212
2.e 2.cc	.
8b-X'	.
8r	.
=213	=213
(<2a	.
2bn)	.
=214	=214
2.e 2.cc	.
(8eL	.
8f#XJ)	.
=215	=215
!!linebreak:original
(4g	.
8dL	.
8eJ	.
4fn	.
8gL	.
8aJ)	.
=216	=216
(<4b	.
8BL	.
8cJ	.
4d	.
8eL	.
8fJ)	.
=217	=217
(16gLL	.
16b-X	.
16a	.
16b-JJ	.
16aLL	.
16b-	.
16a	.
16b-JJ)	.
8a	.
8r	.
4r	.
=218	=218
(16fLL	.
16a-X	.
16g	.
16a-JJ	.
16gLL	.
16a-	.
16g	.
16a-JJ)	.
8g	.
8r	.
4r	.
=219	=219
(<2G	.
16An)	.
(>16ddLL	.
16cc#X	.
16ddJJ	.
16cc#LL	.
16dd	.
16cc#	.
16ddJJ)	.
=220	=220
(2f	.
16eLL)	.
(<16cc	.
16b	.
16ccJJ	.
16bLL	.
16cc	.
16b	.
16ccJJ)	.
=221	=221
!!linebreak:original
4r	.
8cc#X'	.
8r	p
[2dd	.
=222	=222
4dd]	.
8cc#X'	.
8r	.
[2dd	.
=223	=223
8ddL]	.
!LO:TX:b:i:t=cresc.	!
8cc#X'J	.
4.dd	.
8ee'	.
[4ff	.
=224	=224
8ffL]	.
8ee'J	.
4.ff	.
8ccc#X'	.
[4ddd	.
=225	=225
16dddLL]	.
16ccc#XJ	.
8.dddJ	.
16ccc#KL	.
8.dddJ	.
16ccc#KL	.
8.dddJ	.
16ccc#KL	.
[8dddJ	.
=226	=226
8ddd'L]	.
(16dddL	f
16eeeJJ	.
8fffL)	.
(16bbL	.
16cccnJJ	.
8ddd'L)	.
(16ddL	.
16eeJJ	.
8ff'L)	.
(16bL	.
16ccJJ	.
=227	=227
!!linebreak:original
8dd'L)	.
(16bL	.
16ccJJ)	.
(16ddLL	.
16ee	.
16dd	.
16ccJJ)	.
(<16bLL	.
16cc	.
16b	.
16aJJ	.
16gLL	.
16f	.
16e	.
16dJJ)	.
=228	=228
8c	f
8r	.
4r	.
2r	.
=229	=229
4r	p
(16ALL	.
16B	.
16c#X	.
16AJJ	.
16dLL	.
16e	.
16f	.
16dJJ)	.
8a'L	.
8a'J	.
=230	=230
(4a	.
2.g	.
=231	=231
16gLL)	.
16a	.
16b	.
16ccnJJ	.
16bLL	.
16a	.
16g	.
16fJJ)	.
(16eLL	.
16f	.
16g	.
16aJJ	.
16gLL	.
16f	.
16e	.
16dJJ)	.
=232	=232
8c	f
8r	.
4r	.
2r	.
=233	=233
1r	.
=234	=234
!!linebreak:original
4r	p
(16BLL	.
16c	.
16d	.
16BJJ	.
16c#XLL	.
16d	.
16e	.
16c#JJ)	.
8a'L	.
8a'J	.
=235	=235
2.a	.
4A	.
=236	=236
(4G#X	pp
4B	.
4cn	.
[4e)	.
=237	=237
(4e]	.
4B	.
4c	.
4e)	.
=238	=238
(>1Gn 1e	.
=239	=239
!LO:TX:b:i:t=cresc.	!
2B-X	.
2e)	.
=240	=240
16fLL	f
16a	.
16bn	.
16ccJJ	.
16ddLL	.
16ee	.
16ff	.
16ggJJ	f
16aa'LL	.
(>16a	.
16g#X	.
16aJJ	.
16bLL	.
16a	.
16g#	.
16aJJ)	.
=241	=241
!!linebreak:original
16r	f
(16gnLL	.
16f#X	.
16gJJ	.
16aLL	.
16g	.
16f#	.
16gJJ)	.
16r	f
(16bLL	.
16dd	.
16bJJ	.
16ddLL	.
16b	.
16dd	.
16bJJ)	.
=242	=242
8cc	.
8r	p
4r	.
4r	.
8bb'	.
8r	.
=243	=243
(4ccc	.
4ccc#X	.
4ddd	.
8eeeL	.
8fffnJ)	.
=244	=244
(2ggg	.
4cccn	.
4gg)	.
=245	=245
2.ff	.
(8ddL	.
16eeL	.
16ffJJ)	.
=246	=246
[2gg	.
8ggL]	.
(16ffL	.
16eeJJ	.
16ddLL	.
16cc	.
16b	.
16ccJJ)	.
=247	=247
!!linebreak:original
(16bLL	.
16dd	.
16ff	.
16ddJJ	.
16bLL	.
16g	.
16f	.
16dJJ	.
16BLL	.
16d	.
16f	.
16dJJ	.
16BLL	.
16d	.
16g	.
16fJJ)	.
=248	=248
!LO:TX:b:i:t=cresc.	!
16eLL	.
(16e	.
16f	.
16gJJ	.
16aLL	.
16g	.
16a	.
16bJJ)	.
8cc'L	.
8dd'	.
8ee'	.
8ff'J	.
=249	=249
*^	*
1ffT	192%25ffyy	.
.	32ggyy	.
.	32ffyy	.
.	32ggyy	.
.	32ffyy	.
.	32ggyy	.
.	32ffyy	.
.	32ggyy	.
.	32ffyy	.
.	32ggyy	.
.	32ffyy	.
.	32ggyy	.
.	32ffyy	.
.	32ggyy	.
.	32ffyy	.
.	32ggyy	.
.	32ffyy	.
.	32ggyy	.
.	32ffyy	.
.	32ggyy	.
.	32ffyy	.
.	32ggyy	.
.	32ffyy	.
.	32ggyy	.
.	32ffyy	.
.	32ggyy	.
.	32ffyy	.
.	32ggyy	.
.	32ffyy	.
*v	*v	*
=250	=250
4ee	f
4r	.
2r	.
=251	=251
1r	.
=252	=252
2r	.
4r	sf
8f'L	.
8e'J	.
=253	=253
8e'L	.
8d'	.
8a	sf
8aJ	.
8gL	.
8cc	.
8g	.
8gJ	sf
=254	=254
8gL	.
8gg	.
8ff	.
8eeJ	.
8ff	.
8r	.
8dd	.
8r	.
=255	=255
!!linebreak:original
4cc	.
8r	.
8b'	.
4cc'	.
8r	.
8a	.
=256	=256
4g	.
8r	.
8f	.
4e	.
8r	.
8A	.
=257	=257
4G	.
4r	.
4r	.
8d#X	.
8r	p
=258	=258
2.e	.
(8.dnL	.
16BJk)	.
=259	=259
4c	fp
4r	.
4r	.
8d#X	.
8r	.
=260	=260
2.e	.
(8.dnL	.
16BJk)	.
=261	=261
4c	.
4r	.
!LO:TX:b:i:t=dim.	!
4r	.
(8.dL	.
16BJk)	.
=262	=262
4c	.
4r	.
4r	.
(8.dL	.
16BJk)	.
=263	=263
(2.d	pp
8.eL	.
16cJk)	.
=264	=264
!!linebreak:original
(2.e	.
8.fL	.
!LO:TX:b:B:t=Andante con moto quasi Allegretto.	!
16dJk)	.
=265	=265
!LO:TX:b:i:t=cresc.	!
!LO:TX:a:i:t=string. il tempo.	!
8f	.
8r	.
8d	.
8r	.
8d	.
8r	.
8e	.
8r	.
=266	=266
8e	.
8r	.
8a	.
8r	.
8a	.
8r	.
8b	.
8r	.
=267	=267
8cc	.
8r	.
8cc	.
8r	.
8dd	.
8r	.
8dd	.
8r	.
=268	=268
*^	*
2ee	2ryy	f
2ffT	384%31ffyy	.
.	384%11ggyy	.
.	384%11ffyy	.
.	384%11ggyy	.
.	384%11ffyy	.
.	384%11ggyy	.
.	384%11ffyy	.
.	384%11ggyy	.
.	384%11ffyy	.
.	384%11ggyy	.
.	384%11ffyy	.
.	384%11ggyy	.
.	384%11ffyy	.
.	384%11ggyy	.
.	384%11ffyy	.
.	384ryy	.
*v	*v	*
=269	=269
4ee	.
4r	ff
4G 4f	.
4r	.
=270	=270
4G 4e	.
4r	.
2r	.
=271!|:	=271!|:
!!linebreak:original
*k[]	*
*a:	*
*M6/8	*
2.r	.
=272	=272
2.r	.
=273	=273
8r	.
8r	p
(8A	.
8BL	.
8c	.
8dJ)	.
=274	=274
(8cL	.
8B	.
8AJ	.
8G#XL	.
8A	.
8BJ)	.
=275	=275
4c	.
8r	.
4r	.
8r	.
=276	=276
2.r	.
=277:|!	=277:|!
4c	.
8r	.
4r	.
8r	.
=278	=278
2.r	.
=279!|:	=279!|:
!!linebreak:original
8r	.
8r	p
([8c	.
*^	*
4.c_	8eL	.
.	8f	.
.	8gJ)	.
=280	=280	=280
4.c]	(8gL	.
.	8f)	.
.	8fJJ	.
*v	*v	*
(8c#XL	.
8d	.
8eJ)	.
=281	=281
(8eL	.
8dJ)	.
[8a	.
4.a_	fp
=282	=282
4.a]	.
(8c#XL	.
8d	.
8eJ)	.
=283	=283
4.A	.
(8dL	.
8e	.
8fJ	.
=284	=284
8eL	.
8d	.
8cnJ)	.
(4.f#X	sfp
=285	=285
4.g#X)	.
(8dL	.
8e	.
8fnJ	.
=286	=286
!!linebreak:original
8eL	.
8d	.
8cJ)	.
(4.f#X	sfp
=287	=287
4.g#X)	.
(4.f#X	sfp
=288	=288
4.g#X)	.
4g#	.
!LO:TX:b:i:t=cresc.	!
8g#	.
=289	=289
4a	p
8a	.
4a	.
8g#X	.
=290	=290
!LO:TX:b:i:t=cresc.	!
(4g#X	.
8a	.
8bL	.
8cc	.
8ddJ)	.
=291	=291
(8ccL	f
8e)	.
8d'J	.
(4a	>
8g#X)	.
=292	=292
4a	]
8r	p
4r	.
8r	.
=293:|!	=293:|!
(4c 4a	p
8e	.
8dL	.
8e)	.
8c'J	.
=294	=294
!!linebreak:original
(4c	.
8e)	.
(16dLL	.
16e)	.
(16f	.
16e)	.
(16d	.
16cJJ)	.
=295	=295
(4c	.
8e)	.
(16dLL	.
16e)	.
(16d	.
16eJ)	.
8cJ	.
=296	=296
(4c	.
8e)	.
(16dLL	.
16e)	.
(16f	.
16e)	.
(16d	.
16cJJ)	.
=297	=297
(4c	.
16dLL	.
16cJJ)	.
(4c	.
16dLL	.
16cJJ)	.
=298	=298
4c	.
8r	.
4r	.
8r	.
=299	=299
2.r	.
=300	=300
4r	.
8r	.
4r	.
[8d-X	sfp
=301	=301
(4d-]	.
8c)	.
8r	.
8r	.
[8d-X	.
=302	=302
(4d-]	.
8c)	.
8r	.
8r	.
[8d-X	sfp
=303	=303
(8d-L]	.
8c	.
[8b-XJ)	.
(8b-L]	.
8g	.
8ccJ)	.
=304	=304
!!linebreak:original
!LO:TX:b:i:t=cresc.	!
8a-XL	.
(8a-	.
8fJ)	.
(>8d-XL	.
8f	.
8cJ	sfp
=305	=305
8BnL	.
8dn	.
8fJ)	.
(>8d-XL	.
8f	sfp
8cJ	.
=306	=306
8BL	.
8dn	.
8fJ)	.
8r	.
8r	.
[8a-X	.
=307	=307
!LO:TX:b:i:t=cresc.	!
(8a-L]	.
8g	.
[8ffJ	.
8ffL]	.
8dd	.
8ggJ	.
=308	=308
8ffL	.
8ee-X	.
8ddJ	.
8ccL	.
8ee-	.
8ccJ)	.
=309	=309
8b	p
[4g	.
(8gL]	sf
8f#X	.
8anJ)	.
=310	=310
4g	.
(8b	sf
4.cc)	.
=311	=311
8b	.
[4g	.
(8gL]	sf
8f#X	.
8aJ)	.
=312	=312
!!linebreak:original
4g	.
(8b	sf
4.cc)	.
=313	=313
!LO:TX:b:i:t=dim.	!
8bL	.
8BJ	.
8r	.
8r	.
8B	.
8r	.
=314	=314
8r	.
8B	.
8r	.
4r	.
8r	.
=315	=315
2.r	.
=316	=316
(8dL	.
8e	.
8fJ	.
4e)	.
8r	.
=317	=317
2.r	.
=318	=318
(8dL	.
8e	.
8fJ	.
4e)	.
8r	.
=319	=319
4r	.
8r	.
8r	.
16a'LL	.
16b'	.
16cc'	.
16dd'JJ	.
=320	=320
(4.b	.
4cc)	.
8r	.
=321	=321
4r	.
8r	.
8r	.
16a'LL	.
16b'	.
16cc'	.
16dd'JJ	.
=322	=322
8eeL	.
!LO:TX:b:i:t=cresc.	!
16ee'L	.
16ff'	.
16dd'	.
16ee'JJ	.
8ff	.
8r	.
8G 8f	.
=323	=323
!!linebreak:original
(8GL 8e	p
8g	.
8ccJ)	.
(8fL	.
8d	.
8bJ)	.
=324	=324
(8gL	.
8e	.
8ccJ)	.
(8fL	.
8d	.
8bJ)	.
=325	=325
*^	*
4cc	4e	.
*v	*v	*
8r	.
4r	.
8r	.
=326	=326
4r	.
8r	.
4r	.
[8g	.
=327	=327
8g]	p
8r	.
8r	.
4r	.
[8g	.
=328	=328
8g]	.
8r	.
8r	.
4r	.
[8g	.
=329	=329
!LO:TX:b:i:t=dim.	!
8gL]	.
8G	.
8A-XJ	.
8G	.
8r	.
(8A-X	.
=330	=330
8G)	.
8r	.
(8A-X	.
4G)	.
(8A-X	.
=331	=331
4G)	.
8r	pp
4G	.
8r	.
=332	=332
4G	.
8r	.
4r	.
8r	.
=333	=333
4r	.
8r	.
8r	.
8r	.
[8d-X	sfp
=334	=334
!!linebreak:original
(4d-]	.
8c)	.
8r	.
8r	.
[8d-X	sfp
=335	=335
(4d-]	.
8c)	.
8r	.
8r	.
[8d-X	.
=336	=336
(8d-L]	.
8c	.
[8b-XJ)	.
(8b-L]	.
8g	.
8ccJ)	.
=337	=337
8a-X	.
8r	.
8r	.
4r	.
8r	.
=338	=338
4r	.
8r	.
8r	.
8r	.
[8a-X	sfp
=339	=339
4a-_	.
8a-]	.
8r	.
8r	.
[8a-X	sfp
=340	=340
4.a-]	.
8r	.
8r	.
[8a-X	sfp
=341	=341
4a-]	.
[8a-X	.
(8a-L]	.
8f	.
8b-XJ)	.
=342	=342
8g-X	.
8r	.
8r	.
4r	.
8r	.
=343	=343
!!linebreak:original
2.r	.
=344	=344
4r	.
([8B-X	.
8B-L]	.
8e-X	.
8g-XJ	.
=345	=345
8a-XL	.
8f)	.
([8B-XJ	.
8B-L]	.
8d	.
8fJ	.
=346	=346
8g-XL	.
8e-X)	.
!LO:TX:b:i:t=cresc.	!
[8B-XJ	.
(8B-L]	.
8e-	.
8g-J)	.
=347	=347
(8AnL	.
8c	.
[8fJ)	.
4.A 4.f]	.
=348	=348
*^	*
4B-X	4f	.
*v	*v	*
8r	p
4r	.
8r	.
=349	=349
2.r	.
=350	=350
!!linebreak:original
8r	.
8r	.
([8f	.
8fL]	.
8b-X	.
8dd-XJ	.
=351	=351
8ee-XL	.
8cc)	.
([8fJ	.
8fL]	.
8a	.
8ccJ	.
=352	=352
8dd-XL	.
8b-X)	.
!LO:TX:b:i:t=cresc.	!
[8fJ	.
(8fL]	.
8b-	.
8dd-J)	.
=353	=353
(8enL	.
8g	.
8ccJ)	.
(8cL	.
8g	.
8b-XJ)	.
=354	=354
4a-X	f
[8f	sf
4.f_	>
=355	=355
4.f_	.
(4f]	.
8f)	]
=356	=356
4e-X	f
([8g	sf
4g]	.
8a-X	.
=357	=357
4.f#X	.
4.an)	.
=358	=358
4g	.
8r	p
4r	.
8r	.
=359	=359
!!linebreak:original
2.r	.
=360	=360
4r	.
[8d	.
(8dL]	.
8g	.
8b-XJ	.
=361	=361
8ccL	.
8a)	.
[8dJ	.
8dL]	.
8f#X	.
8aJ	.
=362	=362
4b-X	.
8r	f
4r	.
[8b-X	sf
=363	=363
4.b-_	p
(8b-L]	.
8a)	.
8aJ	.
=364	=364
8a	.
8r	f
[8dd	.
(8ddL]	sf
8b-X	.
8aJ)	.
=365	=365
(4g#X	p
8bn)	.
(4b	.
8dd)	.
=366	=366
(<8ccL	.
8a	.
8bJ	.
8ccL	.
8a	.
8fJ)	.
=367	=367
!!linebreak:original
(8eL	.
8g#X	.
8bJ)	.
(8eL	.
8b	.
8ddJ)	sf
=368	=368
(<8ccL	.
8a	p
8bJ	.
8ccL	.
8a	.
8fJ)	.
=369	=369
(8eL	.
8g#X	.
8bJ)	.
(8eL	.
8b	.
8ddJ)	sf
=370	=370
(<8ccL	.
8a	p
8bJ	.
8ccL	.
8a	.
8fJ)	.
=371	=371
(8eL	.
8g#X	.
8bJ)	.
(8ccL	sf
8a	.
8fJ)	.
=372	=372
(8eL	.
8g#X	.
8bJ)	.
(8ccL	sf
8a	.
8fJ)	.
=373	=373
(8eL	.
!LO:TX:b:i:t=dim.	!
8g#X	.
8bJ)	.
(8eL	.
8g#	.
8bJ)	.
=374	=374
(8eL	.
8g#X	.
8bJ)	.
8e	.
8r	.
8r	.
=375	=375
2.r	.
=376	=376
!!linebreak:original
(8BL	.
8c#X	.
8dJ	.
4c#)	.
8r	.
=377	=377
(4.e	.
8e#XL	.
8f#X)	.
8f#'J	.
=378	=378
(8BL	.
8c#X	.
8dJ	.
4.c#)	.
=379	=379
4r	.
8r	.
8r	.
16f#X'LL	.
16g#X'	.
16a'	.
16b'JJ	.
=380	=380
(4.g#X	.
8a)	.
8r	.
8r	.
=381	=381
4r	.
8r	.
8r	.
16f#X'LL	.
16g#X'	.
16a'	.
16b'JJ	.
=382	=382
!LO:TX:b:i:t=cresc.	!
[8cc#XL	.
16cc#L]	.
16dd'	.
16b'	.
16cc#'JJ	.
8dd	.
8r	.
8e 8dd	.
=383	=383
8eL 8cc#X	p
(<8a	.
8cc#J	.
8bL	.
8g#X	.
8ddJ)	.
=384	=384
!!linebreak:original
(8aL	.
8e	.
8cc#XJ	.
8g#XL	.
8d	.
8bJ)	.
=385	=385
!LO:TX:b:i:t=cresc.	!
(8eL	.
8c#X	.
8aJ)	.
8r	.
8G#XL	.
8G#J	.
=386	=386
!LO:TX:b:i:t=dim.	!
8r	.
(8AL	.
8G#XJ)	.
8r	.
(8AL	.
8G#J)	.
=387	=387
8r	.
(8AL	.
8G#XJ)	.
8r	.
(8AL	.
8G#J)	.
=388	=388
4A	.
8r	pp
8r	.
8dL	.
8dJ	.
=389	=389
4d	.
8r	.
8r	.
!LO:TX:b:i:t=cresc.	!
8dL	.
8dJ	.
=390	=390
*^	*
4.B-X	4d	f
.	8ra	.
*v	*v	*
4r	.
8r	.
=391	=391
2.r	.
=392	=392
(4.B-X	p
8BnL	.
8c)	.
8c'J	.
=393	=393
!!linebreak:original
(8dL	.
8e-X	.
8fJ	.
4e-X)	.
8r	.
=394	=394
(4.B-X	.
8BnL	.
8c)	.
8c'J	.
=395	=395
!LO:TX:b:i:t=cresc.	!
(8dL	.
8e-X	.
8fJ	.
4g	.
8f)	.
=396	=396
(8e-XL	p
8g	.
8e-J	.
8fL	.
8d	.
8a-XJ)	.
=397	=397
(8gL	.
8e-X	.
8b-XJ)	.
(8fL	.
8d	.
8a-XJ)	.
=398	=398
(8gL	sfp
8e-X	.
[8B-XJ)	.
(8B-L]	.
8d	.
[8fJ)	.
=399	=399
(8fL]	.
8e-X	.
[8gJ)	.
(8gL]	.
8f	.
8a-XJ)	.
=400	=400
!!linebreak:original
[2.g	.
=401	=401
4.g]	fp
!LO:TX:b:i:t=dim.	!
[4.b-X	.
=402	=402
(4.b-]	.
4.ee-X)	.
=403	=403
[2.een	.
=404	=404
!LO:TX:b:i:t=sempre dim.	!
(4.ee]	.
[4.dd)	.
=405	=405
4.dd]	.
(4.dd	.
=406	=406
4.b)	pp
(4.b	.
=407	=407
4.cc	.
4.a)	.
=408	=408
4b	.
8r	.
4r	.
8r	.
=409	=409
2.r	.
=410	=410
8r	.
8r	.
(8e	.
8aL	p
8b	.
8ccJ)	.
=411	=411
!!linebreak:original
(8bL	.
8a	.
8g#XJ	.
8fL	.
8e	.
8dJ	.
=412	=412
8cL	.
8B	.
8AJ)	.
[4.e	.
=413	=413
4.e_	.
(8eL]	.
8f#X	.
8g#XJ)	.
=414	=414
4a	.
8r	.
4r	.
8r	.
=415	=415
2.r	.
=416	=416
[2.e	.
=417	=417
4.e]	fp
(8fL	.
8e	.
8dJ	.
=418	=418
8cL	.
8B	.
8AJ)	.
(8BL	.
8c	.
8dJ	.
=419	=419
8cL	.
8B	.
8AJ	.
8G#XL	.
8A	.
8BJ	.
=420	=420
4A)	.
8r	.
4r	.
8r	.
=421	=421
!!linebreak:original
2.r	.
=422	=422
8r	.
8r	p
(8c	.
8gL	.
8a	.
8b-XJ)	.
=423	=423
(8b-XL	.
8a)	.
8aJ	.
(8eL	.
8f	.
8gJ)	.
=424	=424
(8gL	.
8fJ)	.
8a	.
(>8ddL	fp
8ee	.
8ffJ	.
=425	=425
8eeL	.
8dd	.
8cc#XJ	.
8b-XL	.
8a	.
8gJ	.
=426	=426
8fL	.
8e	.
8dJ)	.
(4.g#X	.
=427	=427
4a)	.
8a	.
(<8aL	sfp
8bn	.
8ccJ	.
=428	=428
8bL	.
8g#X	.
8eJ)	.
(4.g#	.
=429	=429
4a)	.
8a	.
(<8aL	sfp
8b	.
8ccJ	.
=430	=430
!!linebreak:original
8bL	.
8g#X	.
8eJ)	.
(<8aL	sfp
8b	.
8ccJ	.
=431	=431
8bL	.
8g#X	.
8eJ)	.
(8ddL	.
!LO:TX:b:i:t=cresc.	!
8ee	.
8ffJ)	.
=432	=432
(4ee	.
8a	p
4cc	.
8b)	.
=433	=433
!LO:TX:b:i:t=cresc.	!
(4b	.
8cc	.
8ddL	.
8ee	.
8ffJ)	.
=434	=434
(8eeL	f
8cc)	>
8aJ	.
4cc	.
8b	.
=435	=435
4a	]
8r	p
4r	.
(8B	.
=436	=436
[2.c)	.
=437	=437
4c]	.
8f	.
(8eL	.
8f	.
8gJ)	.
=438	=438
!!linebreak:original
(8gL	.
8f)	.
8fJ	.
(8ddL	fp
8ee	.
8ffJ)	.
=439	=439
(>8eeL	.
8dd	.
8cc#XJ	.
8b-XL	.
8a	.
8gJ)	.
=440	=440
(8fL	.
8e	.
8dJ)	.
(8dL	.
8e	.
8fJ	.
=441	=441
8eL	.
8d	.
8cnJ)	.
(4.f#X	sfp
=442	=442
4.g#X)	.
(8ddL	.
8ee	.
8ffnJ	.
=443	=443
8eeL	.
8dd	.
8ccJ)	.
(4.f#X	sfp
=444	=444
4.g#X)	.
(4.f#X	sfp
=445	=445
4.g#X)	.
4.g#	.
=446	=446
!LO:TX:b:i:t=cresc.	!
4a	.
(8a	p
4cc	.
8b)	.
=447	=447
!!linebreak:original
!LO:TX:b:i:t=cresc.	!
(4b	.
8cc	.
8ddL	.
8ee	.
8ffJ)	.
=448	=448
(8eeL	f
8cc)	.
8a'J	>
4a	.
(8g#X	.
=449	=449
4a)	]
(8e	p
8dL	.
8e)	.
8c'J	.
=450	=450
(4c	.
8e)	.
(16dLL	.
16e)	.
(16f	.
16e)	.
(16d	.
16cJJ)	.
=451	=451
(4c	.
8e)	.
(16dLL	.
16e)	.
(16d	.
16eJ)	.
8cJ	.
=452	=452
(4c	.
8e)	.
(16dLL	.
16e)	.
(16f	.
16e)	.
(16d	.
16cJJ)	.
=453	=453
(4c	.
16dLL	.
16cJJ)	.
(4c	.
16dLL	.
16cJJ)	.
=454	=454
8c	.
8r	.
8r	.
4r	.
[8d-X	sf
=455	=455
!!linebreak:original
(4d-]	.
8c)	.
8r	.
8r	.
[8d-X	sf
=456	=456
(4d-]	.
8c)	.
4r	.
[8c#X	.
=457	=457
(4c#]	f
8dn	.
8eL	.
8f)	>
8d'J	.
=458	=458
(8eL	]
8d#X	p
8eJ)	.
4.e	.
=459	=459
8r	.
!LO:TX:b:i:t=cresc.	!
8r	.
(<8b-X	.
8gL	.
8b-	.
8fJ	sf
=460	=460
8eL	.
8g	.
8b-XJ)	.
(8g-XL	.
8b-	.
8fJ	sf
=461	=461
8eL	.
8gn	.
8b-XJ)	.
(8gL	.
8b-	.
8fJ	f
=462	=462
8eL	.
8b-X	.
8aJ	.
8g#XL	.
8a	>
8eJ	.
=463	=463
!!linebreak:original
(8gnL)	p
8f)	.
8d'J	.
(8cL	.
8e	.
8dJ)	.
=464	=464
(4c	.
8e	.
8dL	.
8e)	.
8c'J	.
=465	=465
(4c	.
8e)	.
(16dLL	.
16e)	.
(16f	.
16e)	.
(16d	.
16cJJ)	.
=466	=466
(4c	.
8e)	.
(16dLL	.
16e)	.
(16d	.
16eJ)	.
8cJ	.
=467	=467
(4c	.
8e)	.
(16dLL	.
16e)	.
(16f	.
16e)	.
(16d	.
16cJJ)	.
=468	=468
!LO:TX:b:i:t=dim.	!
(4c	.
16dLL	.
16cJJ)	.
(4c	.
16dLL	.
16cJJ)	.
=469	=469
!!linebreak:original
(4c	.
16dLL	.
16cJJ)	.
(4c	.
16dLL	.
16cJJ)	.
=470	=470
[2.c	pp
=471	=471
2.c_	.
=472	=472
!LO:TX:b:i:t=cresc.	!
2.c_	.
=473	=473
4.c]	.
[4.c	.
=474	=474
4.c]	.
[4.c	.
=475	=475
!LO:TX:b:i:t=dim.	!
4.c]	.
[4.c	.
=476	=476
4c]	pp
8r	.
!LO:TX:a:t=pizz.	!
4A	.
8r	.
=477	=477
4A	.
8r	.
4r	.
8r	.
==478	==478
!!linebreak:original
*k[]	*
*C:	*
*M3/4	*
!LO:TX:a:B:t=Menuetto Grazioso	!
(2g	.
16gLL	p
16a	.
16b	.
16ccJJ)	.
=479	=479
(2dd	.
4cc)	.
=480	=480
(2cc	.
4cc)	.
=481	=481
(<4b	.
4a	.
[4g)	.
=482	=482
8gL]	.
(16gL	.
16aJJ	.
16gLL	.
16a	.
16g	.
16aJJ	.
16gLL	.
16a	.
16b	.
16ccJJ)	.
=483	=483
(2dd	.
4cc)	.
=484	=484
(2cc	.
4b)	.
=485	=485
(4cc	.
4b	.
4cc)	.
=486	=486
!!linebreak:original
(2G	.
!LO:TX:a:i:t=sul una corda.	!
16GLL	.
16A	.
16B	.
16cJJ)	.
=487	=487
(2B	.
4c)	.
=488	=488
2c	.
(4c	.
=489	=489
4B	.
4c	.
4B)	.
=490	=490
8cL	.
(16GL	.
16AJJ	.
16GLL	.
16A	.
16G	.
16AJJ	.
16GLL	.
16A	.
16B	.
16cJJ)	.
=491	=491
(2B	.
[4c)	.
=492	=492
*^	*
2c]	2ryy	.
4Bt	192%11Byy	.
.	32cLLLyy	.
.	32Byy	.
.	32cyy	.
.	32Byy	.
.	32cyy	.
.	32BJJJyy	.
.	192ryy	.
*v	*v	*
=493	=493
(4c	.
4B	.
4c)	.
=494!|:	=494!|:
!!linebreak:original
4r	.
!LO:TX:b:i:t=cresc.	!
2d	.
=495	=495
4r	.
2f#X	.
=496	=496
4r	.
4fn	.
[4e	.
=497	=497
4e]	.
4d	f
4r	.
=498	=498
2.r	.
=499	=499
2.r	.
=500	=500
2.r	.
=501	=501
(2d	p
16cLL	.
16d	.
16e	.
16fJJ	.
=502	=502
4g)	.
4r	.
8r	.
8c 8d	.
=503	=503
4.d	.
(8gL	.
8a	.
8bJ)	.
=504	=504
!!linebreak:original
8cc	.
(16ggLL	.
16aaJJ	.
16ggLL	.
16aa	.
16gg	.
16aaJJ	.
16ggLL	.
16aa	.
16bb	.
16cccJJ)	.
=505	=505
(4ddd	.
4dd	.
4cc)	.
=506	=506
!LO:TX:b:i:t=cresc.	!
4.cc	.
(8ccL	.
8b)	.
8bJ	.
=507	=507
(8bL	.
8ddJ)	.
4.cc	.
8cc	.
=508	=508
(8dd	.
4ff)	.
(8ffL	f
8ee)	.
[8ggJ	.
=509	=509
8gg]	.
(8ffL	p
8eeJ)	.
(8cc'L	.
8dd'	.
8b'J)	.
=510	=510
!!linebreak:original
!LO:TX:b:i:t=cresc.	!
(4cc	.
16bLL	.
16cc	.
16dd	.
16eeJJ	.
4ff)	.
=511	=511
2ff	.
(4f	.
=512	=512
8eL)	.
8eeJ	.
(16ffLL	.
16ee	.
16dd	.
16ccJJ	.
16bLL	.
16cc	.
16dd	.
16eeJJ)	.
=513	=513
[2.ff	f
=514	=514
4ff]	.
!LO:TX:b:i:t=dim.	!
[2f	.
=515	=515
(2f]	p
4e)	.
=516:|!|:	=516:|!|:
!!linebreak:original
*k[b-]	*
*F:	*
!LO:TX:a:B:t=Trio	!
4c	f
4r	.
4r	.
=517	=517
2.r	.
=518	=518
4r	.
4r	.
8r	.
8e'	p
=519	=519
4f	fp
4r	.
8r	.
8e	.
=520	=520
4f	fp
8r	.
8A'L	.
8G'	.
8Bn'J	.
=521	=521
(16cLL	.
16d	.
16e	.
16fJJ	.
16gLL	.
16a	.
16g	.
16fJJ	.
16eLL	.
16g	.
16a	.
16bnJJ)	.
=522	=522
(16ccLL	.
16bn	.
16cc	.
16aJJ	.
16gLL	.
16b	.
16cc	.
16ddJJ	.
16eeLL	.
16ff	.
16ee	.
16ddJJ)	.
=523	=523
!!linebreak:original
(16ccLL	.
16dd	.
16ee	.
16ffJJ	.
16ggLL	.
16aa	.
16gg	.
16ffJJ	.
16eeLL	.
16cc	.
16bn	.
16aJJ)	.
=524	=524
(16gLL	.
16f	.
16e	.
16dJJ)	.
(16cLL	.
16g	.
16e	.
16cJJ	.
16dLL	.
16g	.
16f	.
16dJJ)	.
=525	=525
(16cLL	.
16d	.
16e	.
16fJJ	.
16gLL	.
16a	.
!LO:TX:b:i:t=cresc.	!
16g	.
16fJJ	.
16eLL	.
16g	.
16a	.
16bnJJ)	.
=526	=526
!!linebreak:original
(16ccLL	.
16bn	.
16cc	.
16aJJ	.
16gLL	.
16b	.
16cc	.
16ddJJ	.
16eeLL	.
16ff	.
16ee	.
16ddJJ)	.
=527	=527
(16ccLL	.
16dd	.
16ee	.
16ffJJ	.
16ggLL	.
16aa	.
16gg	.
16ffJJ	.
16eeLL	.
16cc	.
16bn	.
16aJJ)	.
=528	=528
(16gLL	.
16f	.
16e	.
16dJJ)	.
(16cLL	.
16g	.
16e	sf
16cJJ)	.
(16dLL	.
16g	.
16f	.
16dJJ)	.
=529	=529
!!linebreak:original
(16gLL	.
16f	.
16e	.
16dJJ)	.
(16cLL	.
16g	.
16e	sf
16cJJ)	.
(16dLL	.
16g	.
16f	.
16dJJ)	.
=530	=530
(16gLL	f
16f	.
16e	.
16dJJ)	.
(16cLL	.
16g	.
16e	.
16cJJ)	.
(16dLL	.
16g	.
16f	.
16dJJ)	.
=531	=531
4c	.
4r	.
8r	.
8c	p
=532:|!	=532:|!
4c	f
4r	.
4r	.
=533!|:	=533!|:
!!pagebreak:original
4c#X 4e	f
4r	.
4r	.
=534	=534
4r	.
8r	.
8eL	.
8c#X	.
8eJ	.
=535	=535
4.A	.
8A'L	f
8A'	.
8A'J	.
=536	=536
4.A	.
8f'L	p
8f'	.
8f'J	.
=537	=537
(8gL	.
16fL	.
16gJJ)	.
8e'	.
8B-'L	f
8B-'	.
8B-'J	.
=538	=538
4.B-	.
8g'L	p
8g'	.
8g'J	.
=539	=539
!!linebreak:original
(8aL	.
16gL	.
16aJJ)	.
8f'	.
8c'L	f
8c'	.
8c'J	.
=540	=540
4.c	.
8a'L	p
8g'	.
8b-'J	.
=541	=541
(8aL	.
16gL	.
16aJJ)	.
8f'	.
8A'L	.
8G'	.
8B-'J	.
=542	=542
4A	.
4r	.
4r	.
=543	=543
4A 4f	.
4r	.
4r	.
=544	=544
4A 4f	.
4r	.
4r	.
=545	=545
4r	.
8r	.
8f'L	.
8e'	.
8e'J	.
=546	=546
!!linebreak:original
!LO:TX:b:i:t=cresc.	!
(16fLL	.
16g	.
16a	.
16b-JJ	.
16ccLL	.
16dd	.
16cc	.
16b-JJ	.
16aLL	.
16cc	.
16dd	.
16eeJJ)	.
=547	=547
(16ffLL	.
16ee	.
16ff	.
16ddJJ	.
16ccLL	.
16ee	.
16ff	.
16ggJJ	.
16aaLL	.
16bb-	.
16aa	.
16ggJJ)	.
=548	=548
(16ffLL	.
16gg	.
16aa	.
16bb-JJ	.
16cccLL	.
16ddd	.
16ccc	.
16bb-JJ	.
16aaLL	.
16ff	.
16ee	.
16ddJJ)	.
=549	=549
(16ccLL	.
16b-	.
16a	.
16gJJ)	.
(16fLL	.
16cc	.
16a	sf
16fJJ)	.
(16gLL	.
16cc	.
16b-	.
16gJJ)	.
=550	=550
!!linebreak:original
(16ccLL	.
16b-	.
16a	.
16gJJ)	.
(16fLL	.
16cc	.
16a	.
16fJJ)	sf
(16gLL	.
16cc	.
16b-	.
16gJJ)	.
=551	=551
(16ccLL	.
16b-	f
16a	.
16gJJ)	.
(16fLL	.
16cc	.
16a	.
16fJJ)	.
(16gLL	.
16cc	.
16b-	.
16gJJ)	.
=552	=552
4f	.
4r	.
4r	.
=553:|!	=553:|!
4f	.
4r	.
4r	.
=554	=554
8r	.
8f'L	p
8d'	.
8f'J	.
[4g	.
=555	=555
!LO:TX:a:B:t=Menuetto da Capo	!
2.g]	.
=556||	=556||
!!linebreak:original
*k[]	*
*C:	*
4r	.
4g	.
4g	pp
=557	=557
!LO:TX:a:B:t=Coda	!
4a-X	.
4a-	.
[4a-	.
=558	=558
4a-]	.
4a-X	.
4f	.
=559	=559
!LO:TX:b:i:t=cresc.	!
(4B-X	.
16cLL	.
16d	.
16e-X	.
16fJJ)	.
4r	.
=560	=560
4ee-X	pp
4ee-	.
[4ee-	.
=561	=561
4ee-]	.
4ee-X	.
4ee-	.
=562	=562
4ff	.
4ff	.
[4ff	.
=563	=563
4ff]	.
4r	.
4r	.
=564	=564
4r	.
4d	.
[4d	.
=565	=565
4d]	.
4r	.
(4A-X	f
=566	=566
!!linebreak:original
8G)	.
8r	p
!LO:TX:b:i:t=cresc.	!
(16f#XLL	.
16g	.
16an	.
16bJJ)	.
4cc	.
=567	=567
2.cc	sf
=568	=568
(16bLL	p
16g	.
16a	.
16gJJ	.
16f#XLL	.
!LO:TX:b:i:t=cresc.	!
16g	.
16a	.
16bJJ)	.
8cc'L	.
8cc'J	.
=569	=569
[2.cc	sf
=570	=570
(4cc]	p
4b)	.
!LO:TX:b:i:t=dim.	!
4r	.
=571	=571
4r	pp
(4G	.
4d)	.
=572	=572
!LO:TX:b:i:t=cresc.	!
(4.d	.
16eLL	.
16fJJ	.
16gLL	.
16a	.
16b	.
16ccJJ)	.
=573	=573
2.dd;	.
==574	==574
!!linebreak:original
*M2/2	*
*met(c|)	*
!LO:TX:a:B:t=Allegro molto.	!
1r	]
=575	=575
1r	.
=576	=576
1r	.
=577	=577
1r	.
=578	=578
1r	.
=579	=579
1r	.
=580	=580
1r	.
=581	=581
1r	.
=582	=582
1r	.
=583	=583
1r	.
=584	=584
[2dd	p
8ddL]	.
8dd	.
8ee	.
8ddJ	.
=585	=585
8ccL	.
8bJ	.
4a	.
8r	.
8ccL	.
8dd	.
8ccJ	.
=586	=586
8bL	.
!LO:TX:b:i:t=crescendo poco a poco	!
8aJ	.
4g	.
8r	.
8ddL	.
8ee	.
8ddJ	.
=587	=587
8ccL	.
8b	.
8a	.
8bJ	.
8ccL	.
8a	.
8dd	.
8ccJ	.
=588	=588
8bL	.
8a	.
8g	.
8aJ	.
8bL	.
8cc	.
8dd	.
8bJ	.
=589	=589
!!linebreak:original
8eeL	.
8dd	.
8cc	.
8eeJ	.
8ff#XL	.
8ee	.
8dd	.
8ff#J	.
=590	=590
8ggL	.
8aa	.
8bb	.
8ggJ	.
8ddL	.
8cc	.
8b	.
8ddJ	.
=591	=591
8eeL	.
8dd	.
8cc	.
8eeJ	.
8eeL	.
8dd	.
8cc#X	.
8eeJ	.
=592	=592
8ffL	.
8ff	.
8gg	.
8ffJ	.
8ddL	.
8dd	.
8ee	.
8ddJ	.
=593	=593
8bL	.
8b	.
8ccn	.
8bJ	.
8gL	.
8g	.
8a	.
8gJ	.
=594	=594
8ccL	.
8b	.
8cc	.
8ddJ	.
8eeL	.
8a	.
8b	.
8cc#XJ	.
=595	=595
!!linebreak:original
8ddL	.
!LO:TX:b:i:t=sempre piu crescendo	!
8ee	.
8ff	.
8ddJ	.
8bL	.
8g	.
8a	.
8bJ	.
=596	=596
8ccnL	.
8dd	.
8ee	.
8eeJ	.
8eeL	.
8cc#X	.
8dd	.
8eeJ	.
=597	=597
8ffL	.
8gg	.
8aa	.
8ggJ	.
8ffL	.
8b	.
8ccn	.
8ddJ	.
=598	=598
4ee'	.
4gg'	.
4cc'	.
4bb-X'	.
=599	=599
4cc'	.
4aa'	.
4dd'	.
4gg'	.
=600	=600
4cc'	.
4gg'	.
4cc'	.
4gg'	.
=601	=601
4cc'	.
4ff'	.
4dd'	.
4ff'	.
=602	=602
4dd'	.
4ee'	.
4cc'	.
4ee'	.
=603	=603
!!linebreak:original
4dd'	.
4d'	.
4d'	.
4dd'	.
=604	=604
4cc	f
[4g	.
8gL]	.
8g	.
8a	.
8gJ	.
=605	=605
8fL	.
8eJ	.
4d	.
8r	.
8fL	.
8g	.
8fJ	.
=606	=606
8eL	.
8dJ	.
4c	.
8r	.
8gL	.
8a	.
8gJ	.
=607	=607
8fL	.
8e	.
8d	.
8eJ	.
8fL	.
8d	.
8g	.
8fJ	.
=608	=608
8eL	.
8d	.
8c	.
8dJ	.
8eL	.
8f	.
8g	.
8eJ	.
=609	=609
8aL	.
8g	.
8f	.
8aJ	.
8bL	.
8a	.
8g	.
8bJ	.
=610	=610
8ccL	.
8dd	.
8ee	.
8ccJ	.
8gL	.
8f	.
8e	.
8gJ	.
=611	=611
!!linebreak:original
8aL	.
8a	.
8g	.
8aJ	.
8bL	.
8b	.
8a	.
8bJ	.
=612	=612
8ccL	.
8cc	.
8b	.
8ccJ	.
8ddL	.
8dd	.
8cc	.
8ddJ	.
=613	=613
8eeL	.
8ee	.
8dd	.
8eeJ	.
8ffL	.
8ff	.
8ee	.
8ffJ	.
=614	=614
8ggL	.
8gg	.
8aa	.
8ggJ	.
8ffL	.
8ff	.
8gg	.
8ffJ	.
=615	=615
8eeL	.
8ee	.
8ff	.
8eeJ	.
8ddL	.
8dd	.
8ee	.
8ddJ	.
=616	=616
4cc	.
4cc	.
4r	.
4g 4dd	.
=617	=617
!!linebreak:original
!LO:TX:b:i:t=piu	!
4r	.
4cc 4ee	.
4r	f
4b 4ff	.
=618	=618
4r	.
4gg	.
4r	.
4dd 4ff	.
=619	=619
4r	.
4cc 4ee	.
4r	.
4G 4f	.
=620	=620
4G 4e	ff
4r	.
4G 4g	.
4r	.
=621	=621
4G 4g	.
4r	.
4G 4g	.
4r	.
=622	=622
(8a-XL	sf
8f)	.
8a-'	.
8a-'J	.
(8a-L	.
8f)	.
8a-'	.
8a-'J	.
=623	=623
(8a-XL	.
8f)	.
8a-'	.
8a-'J	.
(8gL	.
8f)	.
8g'	.
8g'J	.
=624	=624
4G 4g	.
4r	.
4G 4g	.
4r	.
=625	=625
4G 4g	.
4r	.
4G 4g	.
4r	.
=626	=626
!!linebreak:original
(8gL	sf
8e)	.
8g'	.
8g'J	.
(8gL	.
8e)	.
8g'	.
8g'J	.
=627	=627
(8gL	.
8e)	.
8g'	.
8g'J	.
(8gL	.
8e)	.
8g'	.
8g'J	.
=628	=628
4g	.
4r	.
(8fL	.
8d)	.
8f'	.
8f'J	.
=629	=629
4f	.
4r	.
(8eL	.
8c)	.
8e'	.
8e'J	.
=630	=630
4r	.
4e	.
4r	.
4g	.
=631	=631
4r	.
4g	.
4r	.
4a	.
=632	=632
4r	.
4a	.
4r	.
4a	.
=633	=633
4a	.
4r	f
2r	.
=634	=634
1r	.
=635	=635
1r	.
=636	=636
1r	.
=637	=637
!!linebreak:original
[1d	.
=638	=638
1d_	p
=639	=639
1d_	.
=640	=640
1d]	.
=641	=641
[1d [1dd	.
=642	=642
1d_ 1dd_	.
=643	=643
1d_ 1dd_	.
=644	=644
4.d] 4.dd]	.
8cc	.
8bL	.
8a	.
8g	.
8fJ	.
=645	=645
8eL	.
8f#X	<
8g	.
8g#XJ	.
[2a	.
=646	=646
4a]	.
(4a	[
4gn)	>
4g	.
=647	=647
!!linebreak:original
8eL	]
!LO:TX:b:i:t=cresc.	!
8f#X	.
8g	.
8g#XJ	.
[2a	.
=648	=648
8aL]	.
8f#X	.
8gn	.
8aJ	.
[2b	.
=649	=649
8bL]	.
8g	.
8a	.
8bJ	.
[2cc	.
=650	=650
8ccL]	.
8a	.
8b	.
8ccJ	.
2dd	.
=651	=651
4g 4dd	f
4r	.
4g 4ee	.
4r	.
=652	=652
4g 4dd	.
4r	.
8ccL	.
8a	.
8f#X	.
8f#J	.
=653	=653
4g 4dd	.
4r	.
4g 4ee	.
4r	.
=654	=654
2r	.
8ddL	p
8gg	.
8g	.
8gJ	.
=655	=655
!!linebreak:original
8bL	.
8b	.
8cc	.
8ccJ	.
8ffL	.
8ff	.
8ee	.
8eeJ	.
=656	=656
8bL	.
8b	.
8cc	.
8ccJ	.
8ffL	.
8ff	.
8ee	.
8eeJ	.
=657	=657
!LO:TX:b:i:t=cresc.	!
8ffL	.
8f	.
8f	.
8fJ	sf
8fL	.
8f	.
8f	.
8fJ	.
=658	=658
4f	.
4r	p
8ddL	.
8gg	.
8g	.
8gJ	.
=659	=659
8bL	.
8b	.
8cc	.
8ccJ	.
8ffL	.
8ff	.
8ee	.
8eeJ	.
=660	=660
8bL	.
8b	.
8cc	.
8ccJ	.
8ffL	.
8ff	.
8ee	.
8eeJ	.
=661	=661
!!linebreak:original
8ffL	.
!LO:TX:b:i:t=cresc.	!
8ff	.
8ff	.
8ffJ	.
8ffL	.
8ff	.
8ff	.
8ffJ	.
=662	=662
8ffL	.
8ff	.
8ff	.
8ffJ	.
8ffL	.
8ff	.
8ff	.
8ffJ	.
=663	=663
8ggL	.
8gg	.
8gg	.
8ggJ	.
8ggL	.
8gg	.
8gg	.
8ggJ	.
=664	=664
4ff	ff
4r	.
2r	.
=665	=665
2r	.
8r	.
8b-XL	p
8cc	.
8b-J	.
=666	=666
8a-XL	.
8gJ	.
4f	.
8r	.
8a-L	.
8b-X	.
8a-J	.
=667	=667
8gL	.
8fJ	.
4e-X	.
8r	.
8enL	.
8d	.
8eJ	.
=668	=668
!!linebreak:original
8fL	.
8gJ	.
4a-X	.
8r	.
8dL	.
8c	.
8dJ	.
=669	=669
4e-X	.
4r	.
2r	.
=670	=670
4r	.
4gg'	.
!LO:TX:b:i:t=cresc.	!
4ff'	.
4b-X'	.
=671	=671
4e-X 4b-X	.
4b-'	.
4ee-X'	.
4gg'	.
=672	=672
(2ff	.
4gg)	.
4b-X	.
=673	=673
2.a-X	f
4a-	.
=674	=674
2.b-X	.
4b-	.
=675	=675
2a-X	.
8r	.
8ccL	p
8dd-X	.
8ccJ	.
=676	=676
8b-XL	.
8a-XJ	.
4g	.
8r	.
8b-L	.
8cc	.
8b-J	.
=677	=677
!!linebreak:original
4cc	.
4r	.
2r	.
=678	=678
4r	.
4a-X'	.
!LO:TX:b:i:t=cresc.	!
4g'	.
4c'	.
=679	=679
4c	.
4f	.
4a-X	.
4dd-X	.
=680	=680
2.g-X	.
4gg-X	.
=681	=681
[2ff	f
8ffL]	.
8ff	.
8gg-X	.
8ffJ	.
=682	=682
8ee-XL	.
8dd-XJ	.
4cc	.
8r	.
8ee-L	.
8ff	.
8ee-J	.
=683	=683
8dd-XL	.
8ccJ	.
4dd-X	.
8r	.
8eenL	p
8ff#X	.
8eeJ	.
=684	=684
8dd#XL	.
8cc#XJ	.
4b#X	.
8r	.
8dd#XL	.
8ee	.
8dd#J	.
=685	=685
!!linebreak:original
8cc#XL	f
8ee	.
8gg#X	.
8gg#J	.
(8gg#L	.
8ee)	.
8gg#'	.
8gg#'J	.
=686	=686
(8gg#XL	.
8ee)	.
8gg#'	.
8gg#'J	.
(8gg#L	.
8ee)	.
8gg#'	.
8gg#'J	.
=687	=687
[1dd#X [1ff#X	sf
=688	=688
1dd#] 1ff#]	.
=689	=689
4ee	.
4r	.
2r	.
=690	=690
1r	.
=691	=691
(8ff#XL	sf
8dd#X)	.
8ff#'	.
8ff#'J	.
(8ff#L	.
8dd#)	.
8ff#'	.
8ff#'J	.
=692	=692
(8ff#XL	.
8dd#X)	.
8ff#'	.
8ff#'J	.
(8ff#L	.
8dd#)	.
8ff#'	.
8ff#'J	.
=693	=693
!!linebreak:original
4ee	.
4r	.
8r	.
8g#XL	.
8a	.
8g#J	.
=694	=694
4a	.
4a	.
8r	.
8b#XL	.
8cc#X	.
8b#J	.
=695	=695
4cc#X	.
4cc#	.
8r	.
8g#XL	.
8a	.
8g#J	.
=696	=696
8aL	.
8g#X	.
8f#X	.
8eJ	.
4d#X'	.
4g#	.
=697	=697
4c#X	.
4c#	.
8r	.
8g#XL	.
8a	.
8g#J	.
=698	=698
4a	.
4a	.
8r	.
8b#XL	.
8cc#X	.
8b#J	.
=699	=699
4cc#X	.
4cc#	.
8r	.
8dd#XL	.
8ee	.
8dd#J	.
=700	=700
!!linebreak:original
4ee'	.
4ee'	.
4dd#X'	.
4dd#'	.
=701	=701
4e 4cc#X	.
4r	.
4e	.
4r	.
=702	=702
4e	.
4r	.
4e	.
4r	.
=703	=703
(8gL	.
8e)	.
8g'	.
8g'J	.
(8gL	.
8e)	.
8g'	.
8g'J	.
=704	=704
(8gL	.
8e)	.
8g'	.
8g'J	.
(8gL	.
8e)	.
8g'	.
8g'J	.
=705	=705
4g	.
4r	.
4A 4g	.
4r	.
=706	=706
4g 4cc#X	.
4r	.
4cc# 4ee	.
4r	.
=707	=707
(8ggL	.
8ee)	.
8gg'	.
8gg'J	.
(8ggL	.
8ee)	.
8gg'	.
8gg'J	.
=708	=708
!!linebreak:original
(8ggL	.
8ee)	.
8gg'	.
8gg'J	.
(8ggL	.
8ee)	.
8gg'	.
8gg'J	.
=709	=709
4ff	.
4r	.
2r	.
=710	=710
1r	.
=711	=711
2r	.
2d	.
=712	=712
2d	.
2e	.
=713	=713
4f	.
4r	.
2dd'	.
=714	=714
2b-X'	.
2g'	.
=715	=715
[2f	.
8fL]	.
8a	.
8b-X	.
8aJ	.
=716	=716
8gL	.
8fJ	.
4e	.
8r	.
8gL	.
8a	.
8gJ	.
=717	=717
4f	.
4ff	p
4r	.
4ff	.
=718	=718
4r	.
4ff	.
4r	.
4ff	.
=719	=719
!!linebreak:original
4r	.
4ff	.
4r	.
4ff	.
=720	=720
4r	.
4ff	.
4r	.
4ff	.
=721	=721
[1a [1aa	f
=722	=722
1a_ 1aa_	>
=723	=723
4a] 4aa]	]
4cc 4aa	p
4r	.
4cc 4aa	.
=724	=724
4r	.
4cc 4aa	.
4r	.
4cc 4aa	.
=725	=725
8ddL 8bb-X	.
!LO:TX:a:i:t=sul una corda.	!
8b-X	.
8cc	.
8b-J	.
8fL	.
8f	.
8g	.
8fJ	.
=726	=726
8gL	.
8g	.
8a	.
8gJ	.
8aL	.
8a	.
8b-X	.
8aJ	.
=727	=727
!!linebreak:original
8b-XL	.
!LO:TX:b:i:t=cresc.	!
8b-	.
8cc	.
8b-J	.
8ccL	.
8cc	.
8dd	.
8ccJ	.
=728	=728
8ddL	.
8dd	.
8ee-X	.
8ddJ	.
8ee-L	.
8ee-	.
8ff	.
8ee-J	.
=729	=729
8ffL	f
8ff	.
8gg-X	.
8ffJ	.
8ee-XL	.
8ee-	.
8ff	.
8ee-J	.
=730	=730
8dd-XL	.
8dd-	.
8ee-X	.
8dd-J	.
8ccL	.
8cc	.
8dd-	.
8ccJ	.
=731	=731
8b-XL	p
8b-	.
8cc	.
8b-J	.
8dd-XL	.
8dd-	.
8ee-X	.
8dd-J	.
=732	=732
8ccL	.
8cc	.
8dd-X	.
8ccJ	.
8gL	.
8g	.
8a-X	.
8gJ	.
=733	=733
!!linebreak:original
4a-X	.
4f	.
4r	.
4f	.
=734	=734
4r	.
4f	.
4r	.
4f	.
=735	=735
4r	.
4f	.
4r	.
4f	.
=736	=736
4r	.
4f	.
4r	.
4f	.
=737	=737
[1f [1cc	f
=738	=738
2f] 2cc]	.
[2f [2dd	.
=739	=739
4f] 4dd]	p
4d	.
4r	.
4d	.
=740	=740
4r	.
4d	.
4r	.
4G 4g	.
=741	=741
4G 4g	.
4ee-X	.
4r	.
4ee-	.
=742	=742
4r	.
4ee-X	.
4r	.
4ee-	.
=743	=743
4r	.
4ee-X	.
4r	.
4ee-	.
=744	=744
!!linebreak:original
4r	.
4ee-X	.
4r	.
4ee-X	.
=745	=745
[1ee-X	f
=746	=746
1ee-_	.
=747	=747
4ee-]	.
4ee-X	p
4r	.
4cc	.
=748	=748
4r	.
4ee-X	.
4r	.
4cc#X	.
=749	=749
1dd	ff
=750	=750
1A 1f#X	sf
=751	=751
1A 1f#X	sf
=752	=752
1A 1f#X	sf
=753	=753
[2G [2fn	.
8GL] 8f]	.
8g	.
8a-X	.
8gJ	.
=754	=754
8fL	.
8e-XJ	.
4d	.
8r	.
8gL	.
8a-X	.
8gJ	.
=755	=755
!!linebreak:original
8fL	.
8e-XJ	.
4d	.
8r	.
8gL	.
8a-X	.
8gJ	.
=756	=756
8fL	.
8e-X	.
8d	.
8e-J	.
8fL	.
8d	.
8g	.
8gJ	.
=757	=757
1G 1en	.
=758	=758
1B-X	.
=759	=759
1B-X	.
=760	=760
2.B-X	.
4g	.
=761	=761
2.c	.
4c 4a-X	sf
=762	=762
2.c 2.g	sf
4c 4g	.
=763	=763
2.c 2.f	.
4c 4f	sf
=764	=764
2.c 2.e-X	sf
!LO:TX:b:i:t=sempre	!
4c 4e-	.
=765	=765
2.a-X	.
4a-	ff
=766	=766
!!linebreak:original
2.g	.
4g	.
=767	=767
2.f	.
4f	.
=768	=768
2.G 2.e-X	.
4G 4e-	.
=769	=769
2.G 2.d	.
4G 4d	.
=770	=770
2.G 2.e-X	.
4G 4e-	.
=771	=771
2.G 2.d	.
4G 4d	.
=772	=772
2.G 2.e-X	.
8ccL	.
8b-XJ	.
=773	=773
8a-XL	.
8g	.
8f	.
8gJ	.
8a-L	.
8g	.
8f	.
8e-XJ	.
=774	=774
!!linebreak:original
8dL	.
8e-X	.
8f	.
8e-J	.
8dL	.
8e-	.
8d	.
8cJ	.
=775	=775
8BL	.
8c	.
8d	.
8cJ	.
8BL	.
8c	.
8B	.
8A-XJ	.
=776	=776
8GL	.
8f	.
8f	.
8fJ	.
8fL	.
8f	.
8f	.
8fJ	.
=777	=777
8fL	.
8b	.
8b	.
8bJ	.
8bL	.
8b	.
8b	.
8bJ	.
=778	=778
8bL	.
8dd	.
8dd	.
8ddJ	.
8ddL	.
8f	.
8f	.
8fJ	.
=779	=779
8fL	.
8d	.
8d	.
8dJ	.
8dL	.
8b	.
8b	.
8bJ	.
=780	=780
1d; 1b	.
=781	=781
!!linebreak:original
[1g	ff
=782	=782
1g]	>
=783	=783
4c	]
4r	p
2r	.
=784	=784
1r	.
=785	=785
1r	.
=786	=786
1r	.
=787	=787
1r	.
=788	=788
1r	.
=789	=789
1r	.
=790	=790
1r	.
=791	=791
1r	.
=792	=792
1r	.
=793	=793
[2dd	p
8ddL]	.
8dd	.
8ee	.
8ddJ	.
=794	=794
8ccL	.
8bJ	.
4a	.
8r	.
8ccL	.
8dd	.
8ccJ	.
=795	=795
8bL	.
8aJ	.
4g	.
8r	.
8ddL	.
8ee	.
8ddJ	.
=796	=796
8ccL	.
8bJ	.
4a	.
8r	.
8ccL	.
8dd	.
8ccJ	.
=797	=797
8bL	.
8a	.
8g	.
8aJ	.
8bL	.
8cc	.
8dd	.
8bJ	.
=798	=798
!!linebreak:original
8eeL	.
8dd	.
8cc	.
8eeJ	.
8ff#XL	.
8ee	.
8dd	.
8ff#J	.
=799	=799
8ggL	.
8aa	.
8bb	.
8ggJ	.
8ddL	.
8cc	.
8b	.
8ddJ	.
=800	=800
8eeL	.
8dd	.
8cc	.
8eeJ	.
8eeL	.
8dd	.
8cc#X	.
8eeJ	.
=801	=801
8ffL	.
8ff	.
8gg	.
8ffJ	.
8ddL	.
8dd	.
8ee	.
8ddJ	.
=802	=802
8bL	.
8b	.
8ccn	.
8bJ	.
8gL	.
8g	.
8a	.
8gJ	.
=803	=803
2cc'	.
2cc#X'	.
=804	=804
!LO:TX:b:i:t=cresc.	!
2dd'	.
2g'	.
=805	=805
2ccn'	.
2cc#X'	.
=806	=806
!!linebreak:original
2dd'	.
2g'	.
=807	=807
2ccn'	.
2b-X'	.
=808	=808
2a'	.
2ff'	.
=809	=809
2ee'	.
2bb-X'	.
=810	=810
2aa'	.
2ff'	.
=811	=811
2ee'	.
[2dd	.
=812	=812
2dd]	.
2dd'	.
=813	=813
2e' 2cc	f
2b-X'	.
=814	=814
2a'	.
2bn'	.
=815	=815
8ccL	.
8cc	.
8cc	.
8ccJ	.
8b-XL	.
8b-	.
8b-	.
8b-J	.
=816	=816
!!linebreak:original
8aL	.
8a	.
8a	.
8aJ	.
8bnL	.
8b	.
8b	.
8bJ	.
=817	=817
8ccL	.
8cc	.
8cc	.
8ccJ	.
8ccL	.
8cc	.
8cc	.
8ccJ	.
=818	=818
8ccL	.
8cc	.
8cc	.
8ccJ	.
8gL	.
8g	.
8g	.
8gJ	.
=819	=819
8gL	.
8cc	.
8cc	.
8ccJ	.
8ccL	.
8cc	.
8cc	.
8ccJ	.
=820	=820
8ccL	.
8cc	.
8cc	.
8ccJ	.
8gL	.
8g	.
8g	.
8gJ	.
=821	=821
8gL	.
8gg	.
8gg	.
8ggJ	.
8ggL	.
8gg	.
8gg	.
8ggJ	.
=822	=822
8ggL	.
8gg	.
8gg	.
8ggJ	.
8ggL	.
8gg	.
8gg	.
8ggJ	.
=823	=823
!!linebreak:original
8ggL	.
8cc	.
8cc	.
8ccJ	.
8ccL	.
8cc	.
8dd	.
8ddJ	.
=824	=824
8ddL	.
8dd	.
8cc	.
8ccJ	.
8ccL	.
8cc	.
8b	.
8bJ	.
=825	=825
8ccL	.
8cc	.
8b	.
8ccJ	.
8ddL	.
8dd	.
8cc	.
8ddJ	.
=826	=826
!LO:TX:b:i:t=piu	!
8eeL	.
8ee	.
8dd	f
8eeJ	.
8ffL	.
8ff	.
8ee	.
8ffJ	.
=827	=827
8ggL	.
8gg	.
8aa	.
8ggJ	.
8ffL	.
8ff	.
8gg	.
8ffJ	.
=828	=828
8eeL	.
8ee	.
8ff	.
8eeJ	.
8ddL	.
8f	.
8g	.
8fJ	.
=829	=829
4e	ff
4r	.
4c 4g	.
4r	.
=830	=830
!!linebreak:original
4c 4g	.
4r	.
4c 4g	.
4r	.
=831	=831
(8a-XL	sf
8f)	.
8a-'	.
8a-'J	.
(8a-L	.
8f)	.
8a-'	.
8a-'J	.
=832	=832
(8a-XL	.
8f)	.
8a-'	.
8a-'J	.
(8gL	.
8f)	.
8g'	.
8g'J	.
=833	=833
4c 4g	.
4r	.
4c 4g	.
4r	.
=834	=834
4c 4g	.
4r	.
4c 4g	.
4r	.
=835	=835
(8gL	sf
8e)	.
8g'	.
8g'J	.
(8gL	.
8e)	.
8g'	.
8g'J	.
=836	=836
(8gL	.
8e)	.
8g'	.
8g'J	.
(8gL	.
8e)	.
8g'	.
8g'J	.
=837	=837
!!linebreak:original
4g	.
4r	.
(8fL	.
8d)	.
8f'	.
8f'J	.
=838	=838
4f	.
4r	.
(8eL	.
8c)	.
8e'	.
8e'J	.
=839	=839
8gL	.
8g	.
8g	.
8gJ	.
(8fL	.
8d)	.
8f'	.
8f'J	.
=840	=840
8fL	.
8f	.
8f	.
8fJ	.
(8eL	.
8c)	.
8e'	.
8e'J	.
=841	=841
4r	.
4e	.
4r	.
4g	.
=842	=842
4r	.
4g	.
4r	.
4g	.
=843	=843
4r	.
4c 4f	.
4r	.
4c 4f#X	.
=844	=844
4r	.
4B 4g	.
4r	.
4B 4d	.
=845	=845
4B 4fn	sf
4r	.
2r	.
=846	=846
1r	.
=847	=847
1r	.
=848	=848
1r	.
=849	=849
1r	.
=850	=850
!!linebreak:original
[1G	p
=851	=851
1G_	.
=852	=852
1G_	.
=853	=853
1G]	.
=854	=854
[1G [1g	.
=855	=855
1G_ 1g_	.
=856	=856
1G_ 1g_	.
=857	=857
1G] 1g]	.
=858	=858
2.a	<
[4dd	.
=859	=859
4dd]	.
(4dd	>
4cc)	.
4cc	.
=860	=860
!LO:TX:b:i:t=cresc.	!
8aL	]
8b	.
8cc	.
8cc#XJ	.
[2dd	.
=861	=861
8ddL]	.
8b	.
8ccn	.
8ddJ	.
[2ee	.
=862	=862
!!linebreak:original
8eeL]	.
8cc	.
8dd	.
8eeJ	.
[2ff	.
=863	=863
8ffL]	.
8dd	.
8ee	.
8ffJ	.
2gg	.
=864	=864
4cc 4gg	.
4r	f
4cc 4aa	.
4r	.
=865	=865
4cc 4gg	.
4r	.
4b	.
4r	.
=866	=866
4g 4cc	.
4r	.
4a 4cc	.
4r	.
=867	=867
4g 4cc	p
4r	.
8gL	.
8cc	.
8c	.
8cJ	.
=868	=868
8eL	.
8e	.
8f	.
8fJ	.
8b-XL	.
8b-	.
8a	.
8aJ	.
=869	=869
8eL	.
8e	.
8f	.
8fJ	.
8b-XL	.
8b-	.
8a	.
8aJ	.
=870	=870
!LO:TX:b:i:t=cresc.	!
8b-XL	.
8B-X	.
8B-	.
8B-J	sf
8B-L	.
8B-	.
8B-	.
8B-J	.
=871	=871
!!linebreak:original
4B-X	p
4r	.
8gL	.
8cc	.
8c	.
8cJ	.
=872	=872
8eL	.
8e	.
8f	.
8fJ	.
8b-XL	.
8b-	.
8a	.
8aJ	.
=873	=873
8eL	.
8e	.
8f	.
8fJ	.
8b-XL	.
8b-	.
8a	.
8aJ	.
=874	=874
!LO:TX:b:i:t=cresc.	!
8b-XL	.
8b-	.
8b-	.
8b-J	.
8b-L	.
8b-	.
8b-	.
8b-J	.
=875	=875
8b-XL	.
8b-	.
8b-	.
8b-J	.
8b-L	.
8b-	.
8b-	.
8b-J	.
=876	=876
8ccL	.
8cc	.
8cc	.
8ccJ	.
8ccL	.
8cc	.
8cc	.
8ccJ	.
=877	=877
4b-X	ff
4r	.
2r	.
=878	=878
!!linebreak:original
2r	.
8r	.
8ee-XL	.
8ff	p
8ee-J	.
=879	=879
8dd-XL	.
8ccJ	.
4b-X	.
8r	.
8dd-L	.
8ee-X	.
8dd-J	.
=880	=880
8ccL	.
8b-XJ	.
4a-X	.
8r	.
8anL	.
8g	.
8aJ	.
=881	=881
8b-XL	.
8ccJ	.
4dd-X	.
8r	.
8gL	.
8f	.
8gJ	.
=882	=882
8a-XL	.
8b-XJ	.
4cc	.
2r	.
=883	=883
2r	.
4d-X	.
4r	.
=884	=884
4c	.
4r	.
2r	.
=885	=885
2r	.
4c 4g	.
4r	.
=886	=886
!!linebreak:original
4c 4f	.
4r	.
8r	.
8ccL	f
8dd	.
8ccJ	.
=887	=887
8bL	.
8cc	.
8dd	.
8fJ	.
8e-XL	.
8f	.
8g	.
8cJ	.
=888	=888
8BL	.
8c	.
8d	.
8GJ	.
2r	.
=889	=889
2r	.
(2cc	.
=890	=890
4b)	.
4r	.
2r	.
=891	=891
2r	.
2cc	.
=892	=892
!LO:TX:b:i:t=piu	!
8bL	.
8d	f
8d	.
8dJ	.
8dL	.
8d	.
8d	.
8dJ	.
=893	=893
8dL	.
8d 8f	.
8d 8f	.
8dJ 8f	.
8dL 8f	.
8d 8f	.
8d 8f	.
8dJ 8f	.
=894	=894
!!linebreak:original
8dL 8f	.
8f 8b	.
8f 8b	.
8fJ 8b	.
8fL 8b	.
8f 8b	.
8f 8b	.
8fJ 8b	.
=895	=895
8fL 8b	.
8f 8dd	.
8f 8dd	.
8fJ 8dd	.
8fL 8dd	.
8f 8dd	.
8f 8dd	.
8fJ 8dd	.
=896	=896
4f 4dd	.
4r	.
2r	.
=897	=897
1r	.
=898	=898
4e-X	.
4r	.
2r	.
=899	=899
1r	.
=900	=900
4G 4d	p
4r	.
2r	.
=901	=901
1r	.
=902	=902
2r	.
4r	.
8aaL	p
8ggJ	.
=903	=903
8ffL	.
8eeJ	.
4dd	.
4r	.
8ggL	.
8ffJ	.
=904	=904
8eeL	.
8ddJ	.
4cc	.
4r	.
8aaL	.
8ggJ	.
=905	=905
8ffL	.
8eeJ	.
4dd	.
4r	.
8ggL	.
8ffJ	.
=906	=906
*^	*
!!linebreak:original
8eeL	2ryy	.
8ddJ	.	.
4cc	.	.
[2gg	384%25ggTyy	.
.	32aayy	.
.	32ggyy	.
.	32aayy	.
.	32ggyy	.
.	32aayy	.
.	32ggyy	.
.	32aayy	.
.	32ggyy	.
.	32aayy	.
.	32ggyy	.
.	32aayy	.
.	32ggyy	.
.	32aayy	.
.	[32ggyy	.
=907	=907	=907
1gg_	32aa]	.
.	32ggyy	.
.	32aayy	.
.	32ggyy	.
.	32aayy	.
.	32ggyy	.
.	32aayy	.
.	32ggyy	.
.	32aayy	.
.	32ggyy	.
.	32aayy	.
.	32ggyy	.
.	32aayy	.
.	32ggyy	.
.	32aayy	.
.	32ggyy	.
.	32aayy	.
.	32ggyy	.
.	32aayy	.
.	32ggyy	.
.	32aayy	.
.	32ggyy	.
.	32aayy	.
.	32ggyy	.
.	32aayy	.
.	32ggyy	.
.	32aayy	.
.	32ggyy	.
.	32aayy	.
.	32ggyy	.
.	32aayy	.
.	32ggyy	.
.	[[128aayy	.
=908	=908	=908
.	1%0aa\]]	.
1gg_	32ggyy	.
.	32aayy	.
.	32ggyy	.
.	32aayy	.
.	32ggyy	.
.	32aayy	.
.	32ggyy	.
.	32aayy	.
.	32ggyy	.
.	32aayy	.
.	32ggyy	.
.	32aayy	.
.	32ggyy	.
.	32aayy	.
.	32ggyy	.
.	32aayy	.
.	32ggyy	.
.	32aayy	.
.	32ggyy	.
.	32aayy	.
.	32ggyy	.
.	32aayy	.
.	32ggyy	.
.	32aayy	.
.	32ggyy	.
.	32aayy	.
.	32ggyy	.
.	32aayy	.
.	32ggyy	.
.	32aayy	.
.	32ggyy	.
.	[[64aayy	.
=909	=909	=909
.	1%0aa\]]	.
1gg]	32ggyy	.
.	32aayy	.
.	32ggyy	.
.	32aayy	.
.	32ggyy	.
.	32aayy	.
.	32ggyy	.
.	32aayy	.
.	32ggyy	.
.	32aayy	.
.	32ggyy	.
.	32aayy	.
.	32ggyy	.
.	32aayy	.
.	32ggyy	.
.	32aayy	.
.	32ggyy	.
.	32aayy	.
.	32ggyy	.
.	32aayy	.
.	32ggyy	.
.	32aayy	.
.	32ggyy	.
.	32aayy	.
.	32ggyy	.
.	32aayy	.
.	32ggyy	.
.	32aayy	.
.	32ggyy	.
.	32aayy	.
.	32ggyy	.
.	64.ryy	.
*v	*v	*
=910	=910
!LO:TX:b:i:t=cresc.	!
2ee'	.
2ee'	.
=911	=911
2ff'	.
2dd'	.
=912	=912
2ee'	.
2ee'	.
=913	=913
2ff'	.
2bb'	.
=914	=914
2ccc'	.
2ccc#X'	.
=915	=915
2ddd'	.
2bb'	.
=916	=916
2cccn'	.
2ccc#X'	.
=917	=917
2ddd'	.
2bb'	.
=918	=918
!!linebreak:original
4cccn	f
4r	.
[2gg	.
=919	=919
2gg]	.
[2cc	.
=920	=920
2cc]	.
[2g	.
=921	=921
2g]	.
[2c	.
=922	=922
2c]	.
[2a	sf
=923	=923
2a]	.
[2d	sf
=924	=924
2d]	.
2e	sf
=925	=925
1f	.
=926	=926
1r	.
=927	=927
(2gg	p
2ff	.
=928	=928
2ee	.
2dd	.
=929	=929
2cc	.
2b)	.
=930	=930
2a	.
[2dd	sfp
=931	=931
2dd]	.
(2ff	sfp
=932	=932
2ee	.
2gg	.
=933	=933
2ff	sfp
2dd)	.
=934	=934
!!linebreak:original
4ee	.
4r	.
(2ee^	.
=935	=935
4ff)	.
4r	.
(2ff^	.
=936	=936
4ee)	.
4r	.
(2ee^	.
=937	=937
4ff)	.
4r	.
(2ff^	.
=938	=938
4ee)	.
4r	.
[2gg	.
=939	=939
(2gg]	sfp
2ee	.
=940	=940
4ff)	.
4r	.
[2ff	sfp
=941	=941
(2ff]	.
2dd	.
=942	=942
4ee)	.
4r	.
[2gg	.
=943	=943
(2gg]	sfp
2ee	.
=944	=944
4ff)	.
4r	.
[2ff	.
=945	=945
(2ff]	sfp
2dd)	.
=946	=946
!!linebreak:original
[1ee	.
=947	=947
!LO:TX:b:i:t=cresc.	!
1ee]	.
=948	=948
[1dd	.
=949	=949
1dd]	.
=950	=950
1cc	.
=951	=951
1g	.
=952	=952
[1G [1f	.
=953	=953
1G] 1f]	.
=954	=954
8GL 8e	.
8cc	ff
8b	.
8ccJ	.
8ccL	.
8cc	.
8b	.
8ccJ	.
=955	=955
8ddL	.
8dd	.
8cc	.
8ddJ	.
8eeL	.
8ee	.
8dd	.
8eeJ	.
=956	=956
8ffL	.
8ff	.
8ee	.
8ffJ	.
8ggL	.
8gg	.
8ff	.
8ggJ	.
=957	=957
8aaL	.
8aa	.
8gg	.
8aaJ	.
8bbL	.
8bb	.
8aa	.
8bbJ	.
=958	=958
!!linebreak:original
4ccc	.
4r	.
2r	.
=959	=959
4B-X	ff
4r	.
2r	.
=960	=960
2.A;	.
(8aL	ff
8gJ	.
=961	=961
8fL	.
8eJ	.
4d')	.
2r;	.
=962	=962
1r	.
=963	=963
1r	.
=964	=964
(1g	p
=965	=965
1b	.
=966	=966
1dd	.
=967	=967
1dd#X)	.
=968	=968
4ee	.
4r	.
(2ee	.
=969	=969
4ff)	.
4r	.
(2ff	.
=970	=970
4ee)	.
4r	.
(2cc 2ee	.
=971	=971
!!linebreak:original
4cc) 4ff	.
4r	.
(2dd 2ff	.
=972	=972
4ee)	.
4r	.
[2gg	.
=973	=973
(2gg]	sfp
2ee)	.
=974	=974
4ff)	.
4r	.
[2ff	.
=975	=975
(2ff]	sfp
2dd)	.
=976	=976
4ee)	.
!LO:TX:b:i:t=cresc.	!
2gg	.
[4gg	.
=977	=977
4gg]	.
4ee	.
(4.eet	.
16ddLL	.
16eeJJ)	.
=978	=978
4ff	.
2ff	.
[4ff	.
=979	=979
4ff]	.
4dd	.
2ddT	.
16qqcc/LL	.
16qqdd/JJ	.
=980	=980
8ee'L	.
(8gg	.
8ff#X	.
8ggJ	.
8aaL	.
8gg	.
8ff#X	.
8ggJ)	.
=981	=981
!!linebreak:original
8r	.
(8eeL	.
8dd	.
8eeJ	.
8ffnL	.
8ee	.
8dd	.
8eeJ)	.
=982	=982
8r	.
(8ffL	.
8ee	.
8ffJ	.
8ggL	.
8ff	.
8ee	.
8ffJ)	.
=983	=983
8r	.
(8ddL	.
8cc	.
8ddJ	.
8eeL	.
8dd	.
8cc	.
8ddJ)	.
=984	=984
8ccL	.
8ee	f
8ee	.
8eeJ	.
8eeL	.
8ee	.
8ee	.
8eeJ	.
=985	=985
8eeL	.
8ee	.
8ee	.
8eeJ	.
8eeL	.
8ee	.
8ee	.
8eeJ	.
=986	=986
8ffL	.
8ff	.
8ff	.
8ffJ	.
8ffL	.
8ff	.
8ff	.
8ffJ	.
=987	=987
8ffL	.
8ff	.
8ff	.
8ffJ	.
8ffL	.
8ff	.
8ff	.
8ffJ	.
=988	=988
!!linebreak:original
8eeL	.
!LO:TX:b:i:t=piu	!
8e	.
8e	f
8eJ	.
8eL	.
8e	.
8e	.
8eJ	.
=989	=989
8eL	.
8e	.
8e	.
8eJ	.
8eL	.
8e	.
8e	.
8eJ	.
=990	=990
8fL	.
8f	.
8f	.
8fJ	.
8fL	.
8f	.
8f	.
8fJ	.
=991	=991
8fL	.
8f	.
8f	.
8fJ	.
8fL	.
8f	.
8f	.
8fJ	.
=992	=992
8eL	.
8ee	.
8dd	.
8eeJ	.
8eeL	.
8ee	.
8dd	.
8eeJ	.
=993	=993
8ffL	.
8ff	.
8ee	.
8ffJ	.
8ggL	.
8gg	.
8ff	.
8ggJ	.
=994	=994
8aaL	.
8aa	.
8gg	.
8aaJ	.
8bbL	.
8bb	.
8aa	.
8bbJ	.
=995	=995
!!linebreak:original
8cccL	.
8ccc	.
8bb	.
8cccJ	.
8dddL	.
8ddd	.
8ccc	.
8dddJ	.
=996	=996
4eee	ff
8ggL	.
8ggJ	.
8eeL	.
8eeJ	.
8ggL	.
8ggJ	.
=997	=997
8ccL	.
8ccJ	.
8eeL	.
8eeJ	.
8gL	.
8gJ	.
8ccL	.
8ccJ	.
=998	=998
8eL	.
8eJ	.
8gL	.
8gJ	.
8cL	.
8cJ	.
8eL	.
8eJ	.
=999	=999
8GL	.
8GJ	.
8cL	.
8cJ	.
8eL	.
8eJ	.
8ccL	.
8ccJ	.
=1000	=1000
4a	.
4r	.
2r	.
=1001	=1001
4G 4d 4b	.
4r	.
2r	.
=1002	=1002
4G 4e 4cc	.
4r	.
2r	.
==	==
*-	*-
!!!RDF**kern: > = above
!!!RDF**kern: < = below
